; generated by Slic3r 1.3.0 on 2020-09-25 at 10:53:11

; external perimeters extrusion width = 0.50mm (2.80mm^3/s)
; perimeters extrusion width = 0.50mm (5.48mm^3/s)
; infill extrusion width = 0.50mm (7.31mm^3/s)
; solid infill extrusion width = 0.50mm (1.83mm^3/s)
; top infill extrusion width = 0.50mm (1.37mm^3/s)

M107
M190 S120 ; set bed temperature and wait for it to be reached
M104 S250 ; set temperature
G28 ; home all axes
G1 Z5 F5000 ; lift nozzle

; Filament gcode

M109 S250 ; set temperature and wait for it to be reached
G21 ; set units to millimeters
G90 ; use absolute coordinates
M82 ; use absolute distances for extrusion
G92 E0
G1 Z0.350 F7800.000
G1 E-2.00000 F2400.00000
G92 E0
G1 X1.000 Y-7.625 F7800.000
G1 E2.00000 F2400.00000
G1 F613.503
G1 X3.259 Y-7.228 E2.08146
G1 X5.247 Y-6.085 E2.16292
G1 X6.726 Y-4.332 E2.24439
G1 X7.519 Y-2.180 E2.32585
G1 X7.625 Y-1.000 E2.36792
G1 X7.625 Y1.000 E2.43896
G1 X7.228 Y3.259 E2.52042
G1 X6.085 Y5.247 E2.60188
G1 X4.332 Y6.726 E2.68335
G1 X2.180 Y7.519 E2.76481
G1 X1.000 Y7.625 E2.80688
G1 X-1.000 Y7.625 E2.87792
G1 X-3.259 Y7.228 E2.95938
G1 X-5.247 Y6.085 E3.04084
G1 X-6.726 Y4.332 E3.12231
G1 X-7.519 Y2.180 E3.20377
G1 X-7.625 Y1.000 E3.24584
G1 X-7.625 Y-1.000 E3.31688
G1 X-7.228 Y-3.259 E3.39834
G1 X-6.085 Y-5.247 E3.47980
G1 X-4.332 Y-6.726 E3.56127
G1 X-2.180 Y-7.519 E3.64273
G1 X-1.000 Y-7.625 E3.68480
G1 X0.940 Y-7.625 E3.75371
G1 E1.75371 F2400.00000
G92 E0
G1 X-0.650 Y0.356 F7800.000
G1 E2.00000 F2400.00000
G1 F1800
G1 X-0.650 Y-0.650 E2.03572
G1 X0.650 Y-0.650 E2.08190
G1 X0.650 Y0.650 E2.12807
G1 X-0.650 Y0.650 E2.17425
G1 X-0.650 Y0.416 E2.18257
G1 X-0.425 Y0.025 F7800.000
M104 S240 ; set temperature
M140 S110 ; set bed temperature
G1 Z0.550 F7800.000
G1 X-0.100 Y-0.293 F7800.000
G1 F600
G1 X0.293 Y-0.293 E2.18840
G1 X0.293 Y0.293 E2.19710
G1 X-0.293 Y0.293 E2.20580
G1 X-0.293 Y-0.293 E2.21449
G1 X-0.160 Y-0.293 E2.21647
G1 X-0.160 Y-0.750 F7800.000
G1 F600
G1 X0.750 Y-0.750 E2.22998
G1 X0.750 Y0.750 E2.25225
G1 X-0.750 Y0.750 E2.27452
G1 X-0.750 Y-0.750 E2.29678
G1 X-0.220 Y-0.750 E2.30466
G1 X0.159 Y-0.508 F7800.000
G1 Z0.750 F7800.000
G1 X0.293 Y0.010 F7800.000
G1 F600
G1 X0.293 Y0.293 E2.30886
G1 X-0.293 Y0.293 E2.31755
G1 X-0.293 Y-0.293 E2.32625
G1 X0.293 Y-0.293 E2.33495
G1 X0.293 Y-0.050 E2.33856
G1 X0.750 Y-0.050 F7800.000
G1 F600
G1 X0.750 Y0.750 E2.35043
G1 X-0.750 Y0.750 E2.37270
G1 X-0.750 Y-0.750 E2.39497
G1 X0.750 Y-0.750 E2.41724
G1 X0.750 Y-0.110 E2.42674
G1 X0.502 Y0.264 F7800.000
M106 S127.5
G1 Z0.950 F7800.000
G1 X-0.293 Y-0.173 F7800.000
G1 F600
G1 X-0.293 Y-0.293 E2.42853
G1 X0.293 Y-0.293 E2.43722
G1 X0.293 Y0.293 E2.44592
G1 X-0.293 Y0.293 E2.45462
G1 X-0.293 Y-0.113 E2.46064
G1 X-0.750 Y-0.113 F7800.000
G1 F600
G1 X-0.750 Y-0.750 E2.47010
G1 X0.750 Y-0.750 E2.49237
G1 X0.750 Y0.750 E2.51464
G1 X-0.750 Y0.750 E2.53691
G1 X-0.750 Y-0.053 E2.54883
G1 X-0.493 Y-0.419 F7800.000
G1 Z1.150 F7800.000
G1 X-0.129 Y-0.293 F7800.000
G1 F600
G1 X0.293 Y-0.293 E2.55509
G1 X0.293 Y0.293 E2.56379
G1 X-0.293 Y0.293 E2.57248
G1 X-0.293 Y-0.293 E2.58118
G1 X-0.189 Y-0.293 E2.58273
G1 X-0.189 Y-0.750 F7800.000
G1 F600
G1 X0.750 Y-0.750 E2.59666
G1 X0.750 Y0.750 E2.61893
G1 X-0.750 Y0.750 E2.64120
G1 X-0.750 Y-0.750 E2.66347
G1 X-0.249 Y-0.750 E2.67091
G1 X0.131 Y-0.510 F7800.000
G1 Z1.350 F7800.000
G1 X-0.293 Y0.158 F7800.000
G1 F600
G1 X-0.293 Y-0.293 E2.67760
G1 X0.293 Y-0.293 E2.68630
G1 X0.293 Y0.293 E2.69500
G1 X-0.293 Y0.293 E2.70370
G1 X-0.293 Y0.218 E2.70481
G1 X-0.750 Y0.218 F7800.000
G1 F600
G1 X-0.750 Y-0.750 E2.71918
G1 X0.750 Y-0.750 E2.74145
G1 X0.750 Y0.750 E2.76372
G1 X-0.750 Y0.750 E2.78599
G1 X-0.750 Y0.278 E2.79300
G1 X-0.512 Y-0.104 F7800.000
G1 Z1.550 F7800.000
G1 X0.135 Y0.293 F7800.000
G1 F600
G1 X-0.293 Y0.293 E2.79935
G1 X-0.293 Y-0.293 E2.80805
G1 X0.293 Y-0.293 E2.81675
G1 X0.293 Y0.293 E2.82544
G1 X0.195 Y0.293 E2.82690
G1 X0.195 Y0.750 F7800.000
G1 F600
G1 X-0.750 Y0.750 E2.84093
G1 X-0.750 Y-0.750 E2.86320
G1 X0.750 Y-0.750 E2.88547
G1 X0.750 Y0.750 E2.90774
G1 X0.255 Y0.750 E2.91509
G1 X-0.125 Y0.511 F7800.000
G1 Z1.750 F7800.000
G1 X0.293 Y0.054 F7800.000
G1 F600
G1 X0.293 Y0.293 E2.91863
G1 X-0.293 Y0.293 E2.92733
G1 X-0.293 Y-0.293 E2.93603
G1 X0.293 Y-0.293 E2.94473
G1 X0.293 Y-0.006 E2.94898
G1 X0.750 Y-0.006 F7800.000
G1 F600
G1 X0.750 Y0.750 E2.96021
G1 X-0.750 Y0.750 E2.98248
G1 X-0.750 Y-0.750 E3.00475
G1 X0.750 Y-0.750 E3.02702
G1 X0.750 Y-0.066 E3.03717
G1 X0.499 Y0.306 F7800.000
G1 Z1.950 F7800.000
G1 X0.098 Y0.293 F7800.000
G1 F600
G1 X-0.293 Y0.293 E3.04297
G1 X-0.293 Y-0.293 E3.05167
G1 X0.293 Y-0.293 E3.06036
G1 X0.293 Y0.293 E3.06906
G1 X0.158 Y0.293 E3.07107
G1 X0.158 Y0.750 F7800.000
G1 F600
G1 X-0.750 Y0.750 E3.08454
G1 X-0.750 Y-0.750 E3.10681
G1 X0.750 Y-0.750 E3.12908
G1 X0.750 Y0.750 E3.15135
G1 X0.218 Y0.750 E3.15926
G1 X-0.161 Y0.508 F7800.000
G1 E1.15926 F2400.00000
G92 E0
M107
; Filament-specific end gcode 
;END gcode for filament

M104 S0 ; turn off temperature
G28 X0  ; home X axis
M84     ; disable motors

M140 S0 ; set bed temperature
; filament used = 2.9mm (0.0cm3)
; total filament cost = 0.0

; avoid_crossing_perimeters = 0
; bed_shape = -90x-90,90x-90,90x90,-90x90
; bed_temperature = 110
; before_layer_gcode = 
; between_objects_gcode = 
; bridge_acceleration = 0
; bridge_fan_speed = 100
; brim_connections_width = 0
; brim_width = 0
; complete_objects = 0
; cooling = 1
; default_acceleration = 0
; disable_fan_first_layers = 3
; duplicate_distance = 6
; end_filament_gcode = "; Filament-specific end gcode \n;END gcode for filament\n"
; end_gcode = M104 S0 ; turn off temperature\nG28 X0  ; home X axis\nM84     ; disable motors\n
; extruder_clearance_height = 20
; extruder_clearance_radius = 20
; extruder_offset = 0x0
; extrusion_axis = E
; extrusion_multiplier = 1
; fan_always_on = 0
; fan_below_layer_time = 60
; filament_colour = #FEF50D
; filament_cost = 0
; filament_density = 0
; filament_diameter = 2.8
; filament_max_volumetric_speed = 0
; filament_notes = ""
; first_layer_acceleration = 0
; first_layer_bed_temperature = 120
; first_layer_extrusion_width = 200%
; first_layer_speed = 30
; first_layer_temperature = 250
; gcode_arcs = 0
; gcode_comments = 0
; gcode_flavor = reprap
; has_heatbed = 1
; infill_acceleration = 0
; infill_first = 0
; interior_brim_width = 0
; layer_gcode = 
; max_fan_speed = 50
; max_layer_height = 0.3
; max_print_speed = 80
; max_volumetric_speed = 0
; min_fan_speed = 35
; min_layer_height = 0.15
; min_print_speed = 10
; min_skirt_length = 0
; notes = 
; nozzle_diameter = 0.4
; only_retract_when_crossing_perimeters = 1
; ooze_prevention = 0
; output_filename_format = [input_filename_base].gcode
; perimeter_acceleration = 0
; post_process = 
; pressure_advance = 0
; printer_notes = 
; resolution = 0
; retract_before_travel = 2
; retract_layer_change = 0
; retract_length = 2
; retract_length_toolchange = 10
; retract_lift = 0
; retract_lift_above = 0
; retract_lift_below = 0
; retract_restart_extra = 0
; retract_restart_extra_toolchange = 0
; retract_speed = 40
; skirt_distance = 6
; skirt_height = 1
; skirts = 1
; slowdown_below_layer_time = 5
; spiral_vase = 0
; standby_temperature_delta = -5
; start_filament_gcode = "; Filament gcode\n"
; start_gcode = G28 ; home all axes\nG1 Z5 F5000 ; lift nozzle\n
; temperature = 240
; threads = 4
; toolchange_gcode = 
; travel_speed = 130
; use_firmware_retraction = 0
; use_relative_e_distances = 0
; use_set_and_wait_bed = 0
; use_set_and_wait_extruder = 0
; use_volumetric_e = 0
; vibration_limit = 0
; wipe = 0
; z_offset = 0
; z_steps_per_mm = 0
; adaptive_slicing = 0
; adaptive_slicing_quality = 75%
; dont_support_bridges = 1
; extrusion_width = 0.5
; first_layer_height = 0.35
; infill_only_where_needed = 0
; interface_shells = 0
; layer_height = 0.2
; match_horizontal_surfaces = 0
; raft_layers = 0
; regions_overlap = 0
; seam_position = random
; sequential_print_priority = 0
; support_material = 0
; support_material_angle = 0
; support_material_buildplate_only = 0
; support_material_contact_distance = 0.2
; support_material_enforce_layers = 0
; support_material_extruder = 1
; support_material_extrusion_width = 0
; support_material_interface_extruder = 1
; support_material_interface_extrusion_width = 0
; support_material_interface_layers = 3
; support_material_interface_spacing = 0
; support_material_interface_speed = 100%
; support_material_max_layers = 0
; support_material_pattern = pillars
; support_material_spacing = 2.5
; support_material_speed = 60
; support_material_threshold = 60%
; xy_size_compensation = 0
; bottom_infill_pattern = rectilinear
; bottom_solid_layers = 3
; bridge_flow_ratio = 1
; bridge_speed = 60
; external_perimeter_extrusion_width = 0
; external_perimeter_speed = 51%
; external_perimeters_first = 0
; extra_perimeters = 1
; fill_angle = 45
; fill_density = 35%
; fill_gaps = 1
; fill_pattern = rectilinear
; gap_fill_speed = 20
; infill_every_layers = 1
; infill_extruder = 1
; infill_extrusion_width = 0
; infill_overlap = 15%
; infill_speed = 80
; overhangs = 1
; perimeter_extruder = 1
; perimeter_extrusion_width = 0
; perimeter_speed = 60
; perimeters = 3
; small_perimeter_speed = 15
; solid_infill_below_area = 70
; solid_infill_every_layers = 0
; solid_infill_extruder = 1
; solid_infill_extrusion_width = 0
; solid_infill_speed = 20
; thin_walls = 1
; top_infill_extrusion_width = 0
; top_infill_pattern = rectilinear
; top_solid_infill_speed = 15
; top_solid_layers = 3
