; generated by Slic3r 1.3.0 on 2020-09-18 at 13:53:09

; external perimeters extrusion width = 0.50mm (2.80mm^3/s)
; perimeters extrusion width = 0.50mm (5.48mm^3/s)
; infill extrusion width = 0.50mm (7.31mm^3/s)
; solid infill extrusion width = 0.50mm (1.83mm^3/s)
; top infill extrusion width = 0.50mm (1.37mm^3/s)

M107
M190 S120 ; set bed temperature and wait for it to be reached
M104 S250 ; set temperature
G28 ; home all axes
G1 Z5 F5000 ; lift nozzle

; Filament gcode

M109 S250 ; set temperature and wait for it to be reached
G21 ; set units to millimeters
G90 ; use absolute coordinates
M82 ; use absolute distances for extrusion
G92 E0
G1 Z0.350 F7800.000
G1 E-2.00000 F2400.00000
G92 E0
G1 X-7.433 Y-2.000 F7800.000
G1 E2.00000 F2400.00000
G1 F702.575
G1 X-7.036 Y-4.259 E2.08146
G1 X-5.892 Y-6.247 E2.16292
G1 X-4.140 Y-7.726 E2.24439
G1 X-1.988 Y-8.519 E2.32585
G1 X-0.808 Y-8.625 E2.36792
G1 X0.808 Y-8.625 E2.42532
G1 X3.067 Y-8.228 E2.50678
G1 X5.055 Y-7.085 E2.58824
G1 X6.534 Y-5.332 E2.66970
G1 X7.327 Y-3.180 E2.75116
G1 X7.433 Y-2.000 E2.79324
G1 X7.433 Y2.000 E2.93532
G1 X7.036 Y4.259 E3.01678
G1 X5.892 Y6.247 E3.09824
G1 X4.140 Y7.726 E3.17970
G1 X1.988 Y8.519 E3.26116
G1 X0.808 Y8.625 E3.30324
G1 X-0.808 Y8.625 E3.36063
G1 X-3.067 Y8.228 E3.44209
G1 X-5.055 Y7.085 E3.52356
G1 X-6.534 Y5.332 E3.60502
G1 X-7.327 Y3.180 E3.68648
G1 X-7.433 Y2.000 E3.72855
G1 X-7.433 Y-1.940 E3.86850
G1 E1.86850 F2400.00000
G92 E0
G1 X-0.458 Y0.251 F7800.000
G1 E2.00000 F2400.00000
G1 F1800
G1 X-0.458 Y-1.650 E2.06751
G1 X0.458 Y-1.650 E2.10004
G1 X0.458 Y1.650 E2.21725
G1 X-0.458 Y1.650 E2.24979
G1 X-0.458 Y0.311 E2.29736
G1 X-0.156 Y-0.012 F7800.000
G1 X-0.000 Y1.338 F7800.000
G1 F702.575
G1 X-0.000 Y-1.338 E2.33019
M104 S240 ; set temperature
M140 S110 ; set bed temperature
G1 Z0.550 F7800.000
G1 X-0.542 Y-0.509 F7800.000
G1 F600
G1 X-0.542 Y-1.293 E2.34182
G1 X0.542 Y-1.293 E2.35791
G1 X0.542 Y1.293 E2.39630
G1 X-0.542 Y1.293 E2.41238
G1 X-0.542 Y-0.449 E2.43825
G1 X-0.999 Y-0.449 F7800.000
G1 F600
G1 X-0.999 Y-1.750 E2.45756
G1 X0.999 Y-1.750 E2.48721
G1 X0.999 Y1.750 E2.53917
G1 X-0.999 Y1.750 E2.56883
G1 X-0.999 Y-0.389 E2.60059
G1 X-0.711 Y-0.728 F7800.000
G1 X-0.000 Y-1.064 F7800.000
G1 F600
G1 X-0.000 Y1.064 E2.64092
G1 Z0.750 F7800.000
G1 X0.303 Y0.010 F7800.000
G1 F600
G1 X0.303 Y0.836 E2.65318
G1 X-0.303 Y0.836 E2.66217
G1 X-0.303 Y-0.836 E2.68699
G1 X0.303 Y-0.836 E2.69598
G1 X0.303 Y-0.050 E2.70765
G1 X0.760 Y-0.050 F7800.000
G1 F600
G1 X0.760 Y1.293 E2.72758
G1 X-0.760 Y1.293 E2.75014
G1 X-0.760 Y-1.293 E2.78853
G1 X0.760 Y-1.293 E2.81109
G1 X0.760 Y-0.110 E2.82866
G1 X1.217 Y-0.110 F7800.000
G1 F900
G1 X1.217 Y1.750 E2.85627
G1 X-1.217 Y1.750 E2.89240
G1 X-1.217 Y-1.750 E2.94436
G1 X1.217 Y-1.750 E2.98050
G1 X1.217 Y-0.170 E3.00396
G1 X0.953 Y0.191 F7800.000
G1 X-0.000 Y-0.607 F7800.000
G1 F600
G1 X-0.000 Y0.607 E3.00812
M106 S127.5
G1 Z0.950 F7800.000
G1 X-0.467 Y-0.275 F7800.000
G1 F600
G1 X-0.467 Y-0.836 E3.01644
G1 X0.467 Y-0.836 E3.03031
G1 X0.467 Y0.836 E3.05513
G1 X-0.467 Y0.836 E3.06899
G1 X-0.467 Y-0.215 E3.08459
G1 X-0.924 Y-0.215 F7800.000
G1 F600
G1 X-0.924 Y-1.293 E3.10059
G1 X0.924 Y-1.293 E3.12803
G1 X0.924 Y1.293 E3.16642
G1 X-0.924 Y1.293 E3.19385
G1 X-0.924 Y-0.155 E3.21535
G1 X-1.381 Y-0.155 F7800.000
G1 F900
G1 X-1.381 Y-1.750 E3.23903
G1 X1.381 Y-1.750 E3.28004
G1 X1.381 Y1.750 E3.33200
G1 X-1.381 Y1.750 E3.37300
G1 X-1.381 Y-0.095 E3.40040
G1 X-1.116 Y-0.455 F7800.000
G1 X0.000 Y-0.607 F7800.000
G1 F600
G1 X0.000 Y0.607 E3.41751
G1 Z1.150 F7800.000
G1 X-0.257 Y-0.836 F7800.000
G1 F600
G1 X0.585 Y-0.836 E3.43001
G1 X0.585 Y0.836 E3.45483
G1 X-0.585 Y0.836 E3.47220
G1 X-0.585 Y-0.836 E3.49702
G1 X-0.317 Y-0.836 E3.50099
G1 X-0.317 Y-1.293 F7800.000
G1 F600
G1 X1.042 Y-1.293 E3.52117
G1 X1.042 Y1.293 E3.55956
G1 X-1.042 Y1.293 E3.59050
G1 X-1.042 Y-1.293 E3.62889
G1 X-0.377 Y-1.293 E3.63876
G1 X-0.377 Y-1.750 F7800.000
G1 F900
G1 X1.499 Y-1.750 E3.66662
G1 X1.499 Y1.750 E3.71858
G1 X-1.499 Y1.750 E3.76309
G1 X-1.499 Y-1.750 E3.81505
G1 X-0.437 Y-1.750 E3.83082
G1 X-0.053 Y-1.515 F7800.000
G1 X0.061 Y-0.330 F7800.000
G1 F600
G1 X-0.176 Y-0.330 E3.83505
G1 X-0.176 Y-0.093 E3.83928
G1 X0.158 Y-0.427 E3.84770
G1 X0.176 Y-0.427 E3.84803
G1 X0.176 Y0.330 E3.86152
G1 X0.079 Y0.427 E3.86397
G1 Z1.350 F7800.000
G1 X-0.688 Y0.371 F7800.000
G1 F600
G1 X-0.688 Y-0.836 E3.88188
G1 X0.688 Y-0.836 E3.90231
G1 X0.688 Y0.836 E3.92713
G1 X-0.688 Y0.836 E3.94757
G1 X-0.688 Y0.431 E3.95358
G1 X-1.145 Y0.431 F7800.000
G1 F600
G1 X-1.145 Y-1.293 E3.97917
G1 X1.145 Y-1.293 E4.01318
G1 X1.145 Y1.293 E4.05157
G1 X-1.145 Y1.293 E4.08558
G1 X-1.145 Y0.491 E4.09749
G1 X-1.602 Y0.491 F7800.000
G1 F900
G1 X-1.602 Y-1.750 E4.13075
G1 X1.602 Y-1.750 E4.17833
G1 X1.602 Y1.750 E4.23029
G1 X-1.602 Y1.750 E4.27787
G1 X-1.602 Y0.551 E4.29568
G1 X-1.361 Y0.172 F7800.000
G1 X-0.183 Y-0.017 F7800.000
G1 F600
G1 X-0.183 Y0.427 E4.30359
G1 X0.261 Y0.427 E4.31150
G1 X-0.280 Y-0.114 E4.32514
G1 X-0.280 Y-0.427 E4.33072
G1 X0.183 Y-0.427 E4.33896
G1 X0.280 Y-0.330 E4.34140
G1 Z1.550 F7800.000
G1 X0.345 Y0.836 F7800.000
G1 F600
G1 X-0.749 Y0.836 E4.35765
G1 X-0.749 Y-0.836 E4.38246
G1 X0.749 Y-0.836 E4.40470
G1 X0.749 Y0.836 E4.42952
G1 X0.405 Y0.836 E4.43462
G1 X0.405 Y1.293 F7800.000
G1 F600
G1 X-1.206 Y1.293 E4.45854
G1 X-1.206 Y-1.293 E4.49693
G1 X1.206 Y-1.293 E4.53274
G1 X1.206 Y1.293 E4.57113
G1 X0.465 Y1.293 E4.58213
G1 X0.465 Y1.750 F7800.000
G1 F900
G1 X-1.663 Y1.750 E4.61373
G1 X-1.663 Y-1.750 E4.66569
G1 X1.663 Y-1.750 E4.71507
G1 X1.663 Y1.750 E4.76703
G1 X0.525 Y1.750 E4.78393
G1 X0.143 Y1.513 F7800.000
G1 X0.243 Y0.427 F7800.000
G1 F600
G1 X0.340 Y0.330 E4.78604
G1 X0.340 Y-0.340 E4.79637
G1 X-0.340 Y0.340 E4.81119
G1 X-0.340 Y-0.330 E4.82152
G1 X-0.243 Y-0.427 E4.82363
G1 Z1.750 F7800.000
G1 X0.801 Y0.147 F7800.000
G1 F600
G1 X0.801 Y0.836 E4.83385
G1 X-0.801 Y0.836 E4.85765
G1 X-0.801 Y-0.836 E4.88247
G1 X0.801 Y-0.836 E4.90626
G1 X0.801 Y0.087 E4.91997
G1 X1.258 Y0.087 F7800.000
G1 F600
G1 X1.258 Y1.293 E4.93786
G1 X-1.258 Y1.293 E4.97523
G1 X-1.258 Y-1.293 E5.01362
G1 X1.258 Y-1.293 E5.05099
G1 X1.258 Y0.027 E5.07059
G1 X1.716 Y0.027 F7800.000
G1 F900
G1 X1.716 Y1.750 E5.09616
G1 X-1.716 Y1.750 E5.14710
G1 X-1.716 Y-1.750 E5.19906
G1 X1.716 Y-1.750 E5.25000
G1 X1.716 Y-0.033 E5.27550
G1 X1.463 Y0.338 F7800.000
G1 X0.393 Y-0.330 F7800.000
G1 F600
G1 X0.296 Y-0.427 E5.27778
G1 X-0.393 Y-0.427 E5.28921
G1 X-0.393 Y-0.393 E5.28978
G1 X0.393 Y0.393 E5.30823
G1 X0.393 Y0.427 E5.30880
G1 X-0.296 Y0.427 E5.32023
G1 X-0.393 Y0.330 E5.32251
G1 Z1.950 F7800.000
G1 X0.273 Y0.836 F7800.000
G1 F600
G1 X-0.821 Y0.836 E5.33876
G1 X-0.821 Y-0.836 E5.36358
G1 X0.821 Y-0.836 E5.38796
G1 X0.821 Y0.836 E5.41277
G1 X0.333 Y0.836 E5.42001
G1 X0.333 Y1.293 F7800.000
G1 F600
G1 X-1.278 Y1.293 E5.44394
G1 X-1.278 Y-1.293 E5.48233
G1 X1.278 Y-1.293 E5.52028
G1 X1.278 Y1.293 E5.55867
G1 X0.393 Y1.293 E5.57181
G1 X0.393 Y1.750 F7800.000
G1 F900
G1 X-1.735 Y1.750 E5.60341
G1 X-1.735 Y-1.750 E5.65537
G1 X1.735 Y-1.750 E5.70689
G1 X1.735 Y1.750 E5.75885
G1 X0.453 Y1.750 E5.77789
G1 X0.074 Y1.509 F7800.000
G1 X0.315 Y0.427 F7800.000
G1 F600
G1 X0.412 Y0.330 E5.78023
G1 X0.412 Y-0.412 E5.79289
G1 X-0.412 Y0.412 E5.81279
G1 X-0.412 Y-0.330 E5.82546
G1 X-0.315 Y-0.427 E5.82780
G1 Z2.150 F7800.000
G1 X-0.480 Y0.836 F7800.000
G1 F600
G1 X-0.831 Y0.836 E5.83302
G1 X-0.831 Y-0.836 E5.85784
G1 X0.831 Y-0.836 E5.88251
G1 X0.831 Y0.836 E5.90733
G1 X-0.420 Y0.836 E5.92589
G1 X-0.420 Y1.293 F7800.000
G1 F600
G1 X-1.288 Y1.293 E5.93878
G1 X-1.288 Y-1.293 E5.97717
G1 X1.288 Y-1.293 E6.01542
G1 X1.288 Y1.293 E6.05381
G1 X-0.360 Y1.293 E6.07827
G1 X-0.360 Y1.750 F7800.000
G1 F900
G1 X-1.745 Y1.750 E6.09884
G1 X-1.745 Y-1.750 E6.15080
G1 X1.745 Y-1.750 E6.20262
G1 X1.745 Y1.750 E6.25458
G1 X-0.300 Y1.750 E6.28493
G1 X-0.664 Y1.491 F7800.000
G1 X-0.422 Y0.330 F7800.000
G1 F600
G1 X-0.325 Y0.427 E6.28731
G1 X0.422 Y0.427 E6.30022
G1 X-0.422 Y-0.427 E6.32099
G1 X0.325 Y-0.427 E6.33391
G1 X0.422 Y-0.330 E6.33628
G1 Z2.350 F7800.000
G1 X-0.007 Y-0.836 F7800.000
G1 F600
G1 X0.811 Y-0.836 E6.34843
G1 X0.811 Y0.836 E6.37324
G1 X-0.811 Y0.836 E6.39733
G1 X-0.811 Y-0.836 E6.42215
G1 X-0.067 Y-0.836 E6.43320
G1 X-0.067 Y-1.293 F7800.000
G1 F600
G1 X1.268 Y-1.293 E6.45302
G1 X1.268 Y1.293 E6.49141
G1 X-1.268 Y1.293 E6.52907
G1 X-1.268 Y-1.293 E6.56746
G1 X-0.127 Y-1.293 E6.58441
G1 X-0.127 Y-1.750 F7800.000
G1 F900
G1 X1.725 Y-1.750 E6.61191
G1 X1.725 Y1.750 E6.66387
G1 X-1.725 Y1.750 E6.71510
G1 X-1.725 Y-1.750 E6.76706
G1 X-0.187 Y-1.750 E6.78990
G1 X0.188 Y-1.503 F7800.000
G1 X-0.306 Y-0.427 F7800.000
G1 F600
G1 X-0.403 Y-0.330 E6.79221
G1 X-0.403 Y0.403 E6.80455
G1 X0.403 Y-0.403 E6.82371
G1 X0.403 Y0.330 E6.83605
G1 X0.306 Y0.427 E6.83836
G1 Z2.550 F7800.000
G1 X0.779 Y-0.177 F7800.000
G1 F600
G1 X0.779 Y0.836 E6.85340
G1 X-0.779 Y0.836 E6.87654
G1 X-0.779 Y-0.836 E6.90135
G1 X0.779 Y-0.836 E6.92449
G1 X0.779 Y-0.237 E6.93338
G1 X1.236 Y-0.237 F7800.000
G1 F600
G1 X1.236 Y1.293 E6.95610
G1 X-1.236 Y1.293 E6.99281
G1 X-1.236 Y-1.293 E7.03120
G1 X1.236 Y-1.293 E7.06791
G1 X1.236 Y-0.297 E7.08269
G1 X1.693 Y-0.297 F7800.000
G1 F900
G1 X1.693 Y1.750 E7.11308
G1 X-1.693 Y1.750 E7.16336
G1 X-1.693 Y-1.750 E7.21533
G1 X1.693 Y-1.750 E7.26561
G1 X1.693 Y-0.357 E7.28629
G1 X1.449 Y0.019 F7800.000
G1 X0.371 Y-0.330 F7800.000
G1 F600
G1 X0.274 Y-0.427 E7.28850
G1 X-0.371 Y-0.427 E7.29887
G1 X-0.371 Y-0.371 E7.29978
G1 X0.371 Y0.371 E7.31665
G1 X0.371 Y0.427 E7.31756
G1 X-0.274 Y0.427 E7.32793
G1 X-0.371 Y0.330 E7.33014
G1 Z2.750 F7800.000
G1 X-0.719 Y-0.348 F7800.000
G1 F600
G1 X-0.719 Y-0.836 E7.33739
G1 X0.719 Y-0.836 E7.35873
G1 X0.719 Y0.836 E7.38355
G1 X-0.719 Y0.836 E7.40488
G1 X-0.719 Y-0.288 E7.42156
G1 X-1.176 Y-0.288 F7800.000
G1 F600
G1 X-1.176 Y-1.293 E7.43649
G1 X1.176 Y-1.293 E7.47140
G1 X1.176 Y1.293 E7.50979
G1 X-1.176 Y1.293 E7.54469
G1 X-1.176 Y-0.228 E7.56727
G1 X-1.633 Y-0.228 F7800.000
G1 F900
G1 X-1.633 Y-1.750 E7.58987
G1 X1.633 Y-1.750 E7.63835
G1 X1.633 Y1.750 E7.69031
G1 X-1.633 Y1.750 E7.73879
G1 X-1.633 Y-0.168 E7.76726
G1 X-1.374 Y-0.532 F7800.000
G1 X0.195 Y-0.330 F7800.000
G1 F600
G1 X-0.310 Y-0.330 E7.77626
G1 X-0.310 Y0.174 E7.78525
G1 X0.292 Y-0.427 E7.80041
G1 X0.310 Y-0.427 E7.80074
G1 X0.310 Y0.330 E7.81423
G1 X0.213 Y0.427 E7.81668
G1 Z2.950 F7800.000
G1 X-0.638 Y0.433 F7800.000
G1 F600
G1 X-0.638 Y-0.836 E7.83552
G1 X0.638 Y-0.836 E7.85447
G1 X0.638 Y0.836 E7.87929
G1 X-0.638 Y0.836 E7.89824
G1 X-0.638 Y0.493 E7.90333
G1 X-1.095 Y0.493 F7800.000
G1 F600
G1 X-1.095 Y-1.293 E7.92985
G1 X1.095 Y-1.293 E7.96238
G1 X1.095 Y1.293 E8.00077
G1 X-1.095 Y1.293 E8.03329
G1 X-1.095 Y0.553 E8.04427
G1 X-1.553 Y0.553 F7800.000
G1 F900
G1 X-1.553 Y-1.750 E8.07847
G1 X1.553 Y-1.750 E8.12457
G1 X1.553 Y1.750 E8.17653
G1 X-1.553 Y1.750 E8.22263
G1 X-1.553 Y0.613 E8.23950
G1 X-1.312 Y0.234 F7800.000
G1 X-0.133 Y0.083 F7800.000
G1 F600
G1 X-0.133 Y0.427 E8.24564
G1 X0.211 Y0.427 E8.25177
G1 X-0.230 Y-0.014 E8.26289
G1 X-0.230 Y-0.427 E8.27025
G1 X0.133 Y-0.427 E8.27671
G1 X0.230 Y-0.330 E8.27915
G1 Z3.150 F7800.000
G1 X0.531 Y0.267 F7800.000
G1 F600
G1 X0.531 Y0.836 E8.28759
G1 X-0.531 Y0.836 E8.30337
G1 X-0.531 Y-0.836 E8.32819
G1 X0.531 Y-0.836 E8.34397
G1 X0.531 Y0.207 E8.35946
G1 X0.989 Y0.207 F7800.000
G1 F600
G1 X0.989 Y1.293 E8.37558
G1 X-0.989 Y1.293 E8.40493
G1 X-0.989 Y-1.293 E8.44332
G1 X0.989 Y-1.293 E8.47267
G1 X0.989 Y0.147 E8.49405
G1 X1.446 Y0.147 F7800.000
G1 F900
G1 X1.446 Y1.750 E8.51785
G1 X-1.446 Y1.750 E8.56077
G1 X-1.446 Y-1.750 E8.61273
G1 X1.446 Y-1.750 E8.65566
G1 X1.446 Y0.087 E8.68293
G1 X1.183 Y0.449 F7800.000
G1 X-0.000 Y0.607 F7800.000
G1 F600
G1 X-0.000 Y-0.607 E8.70514
G1 Z3.350 F7800.000
G1 X0.385 Y-0.256 F7800.000
G1 F600
G1 X0.385 Y0.836 E8.72135
G1 X-0.385 Y0.836 E8.73278
G1 X-0.385 Y-0.836 E8.75760
G1 X0.385 Y-0.836 E8.76902
G1 X0.385 Y-0.316 E8.77674
G1 X0.842 Y-0.316 F7800.000
G1 F600
G1 X0.842 Y1.293 E8.80063
G1 X-0.842 Y1.293 E8.82563
G1 X-0.842 Y-1.293 E8.86402
G1 X0.842 Y-1.293 E8.88901
G1 X0.842 Y-0.376 E8.90263
G1 X1.299 Y-0.376 F7800.000
G1 F900
G1 X1.299 Y1.750 E8.93419
G1 X-1.299 Y1.750 E8.97276
G1 X-1.299 Y-1.750 E9.02472
G1 X1.299 Y-1.750 E9.06329
G1 X1.299 Y-0.436 E9.08280
G1 X1.046 Y-0.067 F7800.000
G1 X-0.000 Y-0.607 F7800.000
G1 F600
G1 X-0.000 Y0.607 E9.09344
G1 Z3.550 F7800.000
G1 X0.206 Y-0.199 F7800.000
G1 F600
G1 X0.206 Y0.836 E9.10880
G1 X-0.206 Y0.836 E9.11493
G1 X-0.206 Y-0.836 E9.13975
G1 X0.206 Y-0.836 E9.14588
G1 X0.206 Y-0.259 E9.15444
G1 X0.664 Y-0.259 F7800.000
G1 F600
G1 X0.664 Y1.293 E9.17749
G1 X-0.664 Y1.293 E9.19719
G1 X-0.664 Y-1.293 E9.23558
G1 X0.664 Y-1.293 E9.25528
G1 X0.664 Y-0.319 E9.26973
G1 X1.121 Y-0.319 F7800.000
G1 F900
G1 X1.121 Y1.750 E9.30046
G1 X-1.121 Y1.750 E9.33373
G1 X-1.121 Y-1.750 E9.38569
G1 X1.121 Y-1.750 E9.41897
G1 X1.121 Y-0.379 E9.43931
G1 X0.859 Y-0.017 F7800.000
G1 Z3.750 F7800.000
G1 X0.420 Y-0.407 F7800.000
G1 F600
G1 X0.420 Y1.293 E9.46455
G1 X-0.420 Y1.293 E9.47702
G1 X-0.420 Y-1.293 E9.51541
G1 X0.420 Y-1.293 E9.52787
G1 X0.420 Y-0.467 E9.54013
G1 X0.877 Y-0.467 F7800.000
G1 F600
G1 X0.877 Y1.750 E9.57305
G1 X-0.877 Y1.750 E9.59909
G1 X-0.877 Y-1.750 E9.65105
G1 X0.877 Y-1.750 E9.67709
G1 X0.877 Y-0.527 E9.69524
G1 X0.609 Y-0.170 F7800.000
G1 X-0.000 Y-1.064 F7800.000
G1 F600
G1 X-0.000 Y1.064 E9.71873
G1 Z3.950 F7800.000
G1 X0.508 Y0.048 F7800.000
G1 F600
G1 X0.508 Y1.750 E9.74400
G1 X-0.508 Y1.750 E9.75908
G1 X-0.508 Y-1.750 E9.81104
G1 X0.508 Y-1.750 E9.82612
G1 X0.508 Y-0.012 E9.85193
G1 X0.201 Y0.304 F7800.000
G1 X-0.000 Y-1.521 F7800.000
G1 F600
G1 X-0.000 Y1.521 E9.90292
G1 E7.90292 F2400.00000
G92 E0
M107
; Filament-specific end gcode 
;END gcode for filament

M104 S0 ; turn off temperature
G28 X0  ; home X axis
M84     ; disable motors

M140 S0 ; set bed temperature
; filament used = 9.8mm (0.1cm3)
; total filament cost = 0.0

; avoid_crossing_perimeters = 0
; bed_shape = -90x-90,90x-90,90x90,-90x90
; bed_temperature = 110
; before_layer_gcode = 
; between_objects_gcode = 
; bridge_acceleration = 0
; bridge_fan_speed = 100
; brim_connections_width = 0
; brim_width = 0
; complete_objects = 0
; cooling = 1
; default_acceleration = 0
; disable_fan_first_layers = 3
; duplicate_distance = 6
; end_filament_gcode = "; Filament-specific end gcode \n;END gcode for filament\n"
; end_gcode = M104 S0 ; turn off temperature\nG28 X0  ; home X axis\nM84     ; disable motors\n
; extruder_clearance_height = 20
; extruder_clearance_radius = 20
; extruder_offset = 0x0
; extrusion_axis = E
; extrusion_multiplier = 1
; fan_always_on = 0
; fan_below_layer_time = 60
; filament_colour = #FEF50D
; filament_cost = 0
; filament_density = 0
; filament_diameter = 2.8
; filament_max_volumetric_speed = 0
; filament_notes = ""
; first_layer_acceleration = 0
; first_layer_bed_temperature = 120
; first_layer_extrusion_width = 200%
; first_layer_speed = 30
; first_layer_temperature = 250
; gcode_arcs = 0
; gcode_comments = 0
; gcode_flavor = reprap
; has_heatbed = 1
; infill_acceleration = 0
; infill_first = 0
; interior_brim_width = 0
; layer_gcode = 
; max_fan_speed = 50
; max_layer_height = 0.3
; max_print_speed = 80
; max_volumetric_speed = 0
; min_fan_speed = 35
; min_layer_height = 0.15
; min_print_speed = 10
; min_skirt_length = 0
; notes = 
; nozzle_diameter = 0.4
; only_retract_when_crossing_perimeters = 1
; ooze_prevention = 0
; output_filename_format = [input_filename_base].gcode
; perimeter_acceleration = 0
; post_process = 
; pressure_advance = 0
; printer_notes = 
; resolution = 0
; retract_before_travel = 2
; retract_layer_change = 0
; retract_length = 2
; retract_length_toolchange = 10
; retract_lift = 0
; retract_lift_above = 0
; retract_lift_below = 0
; retract_restart_extra = 0
; retract_restart_extra_toolchange = 0
; retract_speed = 40
; skirt_distance = 6
; skirt_height = 1
; skirts = 1
; slowdown_below_layer_time = 5
; spiral_vase = 0
; standby_temperature_delta = -5
; start_filament_gcode = "; Filament gcode\n"
