; generated by Slic3r 1.2.9 on 2020-09-15 at 17:01:22

; external perimeters extrusion width = 0.50mm
; perimeters extrusion width = 0.72mm
; infill extrusion width = 0.72mm
; solid infill extrusion width = 0.72mm
; top infill extrusion width = 0.72mm

M107
M104 S200 ; set temperature
G28 ; home all axes
G1 Z5 F5000 ; lift nozzle

M109 S200 ; wait for temperature to be reached
G21 ; set units to millimeters
G90 ; use absolute coordinates
M82 ; use absolute distances for extrusion
G92 E0
--bottom_solid_layers
G1 Z0.350 F7800.000
G1 E-2.00000 F2400.00000
G92 E0
G1 X94.352 Y94.753 F7800.000
G1 E2.00000 F2400.00000
G1 X96.105 Y93.274 E2.07096 F611.891
G1 X98.257 Y92.481 E2.14192
G1 X99.437 Y92.375 E2.17858
G1 X100.563 Y92.375 E2.21344
G1 X102.822 Y92.772 E2.28441
G1 X104.810 Y93.915 E2.35537 F611.891
G1 X106.290 Y95.668 E2.42633
G1 X107.082 Y97.820 E2.49729
G1 X107.188 Y99.000 E2.53394
G1 X107.188 Y101.000 E2.59583
G1 X106.791 Y103.259 E2.66679
G1 X105.648 Y105.247 E2.73775
G1 X103.895 Y106.726 E2.80871
G1 X101.743 Y107.519 E2.87968
G1 X100.563 Y107.625 E2.91633
G1 X99.437 Y107.625 E2.95119
G1 X97.178 Y107.228 E3.02216
G1 X95.190 Y106.085 E3.09312
G1 X93.710 Y104.332 E3.16408
G1 X92.918 Y102.180 E3.23504
G1 X92.812 Y101.000 E3.27170
G1 X92.812 Y99.000 E3.33358
G1 X93.209 Y96.741 E3.40454
G1 X94.315 Y94.818 E3.47318
G1 E1.47318 F2400.00000
G92 E0
G1 X100.213 Y100.650 F7800.000
G1 E2.00000 F2400.00000
G1 X99.787 Y100.650 E2.01321 F611.891
G1 X99.787 Y99.350 E2.05343
G1 X100.213 Y99.350 E2.06664
G1 X100.213 Y100.575 E2.10455
G1 X99.844 Y100.437 F7800.000
M140 S110 ; wait for bed temperature to be reached
--bottom_solid_layers
G1 Z0.650 F7800.000
G1 X100.611 Y100.750 F7800.000
G1 X99.389 Y100.750 E2.12714 F600.000
G1 X99.389 Y99.250 E2.15488
G1 X100.611 Y99.250 E2.17748
G1 X100.611 Y100.675 E2.20382
G1 X100.178 Y100.500 F7800.000
G1 X100.000 Y100.477 F7800.000
G1 X100.000 Y99.523 E2.23035 F600.000
--bottom_solid_layers
G1 Z0.950 F7800.000
G1 X100.729 Y100.750 F7800.000
G1 X99.271 Y100.750 E2.25731 F600.000
G1 X99.271 Y99.250 E2.28505
G1 X100.729 Y99.250 E2.31201
G1 X100.729 Y100.675 E2.33836
G1 X100.296 Y100.500 F7800.000
G1 X100.332 Y99.965 F7800.000
G1 X100.014 Y99.647 E2.35084 F600.000
M106 S255
--bottom_solid_layers
G1 Z1.250 F7800.000
G1 X100.740 Y100.750 F7800.000
G1 X99.260 Y100.750 E2.37821 F600.000
G1 X99.260 Y99.250 E2.40594
G1 X100.740 Y99.250 E2.43331
G1 X100.740 Y100.675 E2.45965
G1 X100.307 Y100.500 F7800.000
G1 X100.343 Y100.035 F7800.000
G1 X100.025 Y100.353 E2.47213 F600.000
--bottom_solid_layers
G1 Z1.550 F7800.000
G1 X100.665 Y100.750 F7800.000
G1 X99.335 Y100.750 E2.49671 F600.000
G1 X99.335 Y99.250 E2.52444
G1 X100.665 Y99.250 E2.54902
G1 X100.665 Y100.675 E2.57536
G1 X100.232 Y100.500 F7800.000
G1 X100.267 Y99.965 F7800.000
G1 X99.949 Y99.647 E2.58784 F600.000
--bottom_solid_layers
G1 Z1.850 F7800.000
G1 X100.463 Y100.750 F7800.000
G1 X99.537 Y100.750 E2.60496 F600.000
G1 X99.537 Y99.250 E2.63269
G1 X100.463 Y99.250 E2.64981
G1 X100.463 Y100.675 E2.67616
G1 X100.030 Y100.500 F7800.000
G1 E0.67616 F2400.00000
G92 E0
M107
M104 S0 ; turn off temperature
G28 X0  ; home X axis
M84     ; disable motors

; filament used = 2.1mm (0.0cm3)

; avoid_crossing_perimeters = 1
; bed_shape = 0x0,200x0,200x200,0x200
; bed_temperature = 110
; before_layer_gcode = --bottom_solid_layers
; bridge_acceleration = 0
; bridge_fan_speed = 100
; brim_width = 0
; complete_objects = 1
; cooling = 1
; default_acceleration = 0
; disable_fan_first_layers = 3
; duplicate_distance = 6
; end_gcode = M104 S0 ; turn off temperature\nG28 X0  ; home X axis\nM84     ; disable motors\n
; extruder_clearance_height = 20
; extruder_clearance_radius = 20
; extruder_offset = 0x0
; extrusion_axis = E
; extrusion_multiplier = 1
; fan_always_on = 0
; fan_below_layer_time = 60
; filament_colour = #FFFFFF
; filament_diameter = 3
; first_layer_acceleration = 0
; first_layer_bed_temperature = 0
; first_layer_extrusion_width = 200%
; first_layer_speed = 30
; first_layer_temperature = 200
; gcode_arcs = 0
; gcode_comments = 0
; gcode_flavor = reprap
; infill_acceleration = 0
; infill_first = 0
; layer_gcode = 
; max_fan_speed = 100
; max_print_speed = 80
; max_volumetric_speed = 0
; min_fan_speed = 35
; min_print_speed = 10
; min_skirt_length = 0
; notes = 
; nozzle_diameter = 0.5
; only_retract_when_crossing_perimeters = 1
; ooze_prevention = 0
; output_filename_format = [input_filename_base].gcode
; perimeter_acceleration = 0
; post_process = 
; pressure_advance = 0
; resolution = 0
; retract_before_travel = 2
; retract_layer_change = 0
; retract_length = 2
; retract_length_toolchange = 10
; retract_lift = 0
; retract_restart_extra = 0
; retract_restart_extra_toolchange = 0
; retract_speed = 40
; skirt_distance = 6
; skirt_height = 1
; skirts = 1
; slowdown_below_layer_time = 5
; spiral_vase = 0
; standby_temperature_delta = -5
; start_gcode = G28 ; home all axes\nG1 Z5 F5000 ; lift nozzle\n
; temperature = 200
; threads = 2
; toolchange_gcode = 
; travel_speed = 130
; use_firmware_retraction = 0
; use_relative_e_distances = 0
; use_volumetric_e = 0
; vibration_limit = 0
; wipe = 0
; z_offset = 0
; dont_support_bridges = 1
; extrusion_width = 0
; first_layer_height = 0.35
; infill_only_where_needed = 0
; interface_shells = 0
; layer_height = 0.3
; raft_layers = 0
; seam_position = aligned
; support_material = 0
; support_material_angle = 0
; support_material_contact_distance = 0.2
; support_material_enforce_layers = 0
; support_material_extruder = 1
; support_material_extrusion_width = 0
; support_material_interface_extruder = 1
; support_material_interface_layers = 3
; support_material_interface_spacing = 0
; support_material_interface_speed = 100%
; support_material_pattern = pillars
; support_material_spacing = 2.5
; support_material_speed = 60
; support_material_threshold = 0
; xy_size_compensation = 0
; bottom_solid_layers = 3
; bridge_flow_ratio = 1
; bridge_speed = 60
; external_fill_pattern = rectilinear
; external_perimeter_extrusion_width = 0
; external_perimeter_speed = 50%
; external_perimeters_first = 0
; extra_perimeters = 1
; fill_angle = 45
; fill_density = 20%
; fill_pattern = honeycomb
; gap_fill_speed = 20
; infill_every_layers = 1
; infill_extruder = 1
; infill_extrusion_width = 0
; infill_overlap = 15%
; infill_speed = 80
; overhangs = 1
; perimeter_extruder = 1
; perimeter_extrusion_width = 0
; perimeter_speed = 60
; perimeters = 3
; small_perimeter_speed = 15
; solid_infill_below_area = 70
; solid_infill_every_layers = 0
; solid_infill_extruder = 1
; solid_infill_extrusion_width = 0
; solid_infill_speed = 20
; thin_walls = 1
; top_infill_extrusion_width = 0
; top_solid_infill_speed = 15
; top_solid_layers = 3
