; generated by Slic3r 1.3.0 on 2020-09-20 at 08:40:50

; external perimeters extrusion width = 0.50mm (2.80mm^3/s)
; perimeters extrusion width = 0.50mm (5.48mm^3/s)
; infill extrusion width = 0.50mm (7.31mm^3/s)
; solid infill extrusion width = 0.50mm (1.83mm^3/s)
; top infill extrusion width = 0.50mm (1.37mm^3/s)

M107
M190 S120 ; set bed temperature and wait for it to be reached
M104 S250 ; set temperature
G28 ; home all axes
G1 Z5 F5000 ; lift nozzle

; Filament gcode

M109 S250 ; set temperature and wait for it to be reached
G21 ; set units to millimeters
G90 ; use absolute coordinates
M82 ; use absolute distances for extrusion
G92 E0
G1 Z0.350 F7800.000
G1 E-2.00000 F2400.00000
G92 E0
G1 X6.881 Y-1.937 F7800.000
G1 E2.00000 F2400.00000
G1 F600
G1 X6.940 Y-1.715 E2.00816
G1 X7.141 Y0.570 E2.08962
G1 X6.940 Y1.715 E2.13091
G1 X6.868 Y1.985 E2.14085
G1 X5.900 Y4.064 E2.22232
G1 X5.153 Y4.955 E2.26360
G1 X4.955 Y5.153 E2.27354
G1 X3.077 Y6.470 E2.35501
G1 X1.985 Y6.868 E2.39628
G1 X1.715 Y6.940 E2.40623
G1 X-0.570 Y7.141 E2.48770
G1 X-1.715 Y6.940 E2.52898
G1 X-1.985 Y6.868 E2.53893
G1 X-4.064 Y5.900 E2.62039
G1 X-4.955 Y5.153 E2.66167
G1 X-5.153 Y4.955 E2.67162
G1 X-6.470 Y3.077 E2.75308
G1 X-6.868 Y1.985 E2.79435
G1 X-6.940 Y1.715 E2.80431
G1 X-7.141 Y-0.570 E2.88577
G1 X-6.940 Y-1.715 E2.92705
G1 X-6.868 Y-1.985 E2.93700
G1 X-5.900 Y-4.064 E3.01846
G1 X-5.153 Y-4.955 E3.05974
G1 X-4.955 Y-5.153 E3.06969
G1 X-3.077 Y-6.470 E3.15115
G1 X-1.985 Y-6.868 E3.19243
G1 X-1.715 Y-6.940 E3.20238
G1 X0.570 Y-7.141 E3.28384
G1 X1.715 Y-6.940 E3.32512
G1 X1.985 Y-6.868 E3.33507
G1 X4.064 Y-5.900 E3.41653
G1 X4.955 Y-5.153 E3.45782
G1 X5.153 Y-4.955 E3.46776
G1 X6.470 Y-3.077 E3.54922
G1 X6.864 Y-1.994 E3.59016
M104 S240 ; set temperature
M140 S110 ; set bed temperature
G1 Z0.550 F7800.000
G1 E1.59016 F2400.00000
G92 E0
G1 X-0.461 Y0.300 F7800.000
G1 E2.00000 F2400.00000
G1 F600
G1 X-0.483 Y0.279 E2.00045
G1 X-0.557 Y0.000 E2.00473
G1 X-0.483 Y-0.279 E2.00901
G1 X-0.279 Y-0.483 E2.01329
G1 X0.000 Y-0.557 E2.01757
G1 X0.279 Y-0.483 E2.02186
G1 X0.483 Y-0.279 E2.02614
G1 X0.557 Y0.000 E2.03042
G1 X0.483 Y0.279 E2.03470
G1 X0.279 Y0.483 E2.03899
G1 X-0.000 Y0.557 E2.04327
G1 X-0.279 Y0.483 E2.04755
G1 X-0.419 Y0.342 E2.05049
G1 X-0.456 Y0.270 F7800.000
G1 Z0.750 F7800.000
G1 X-0.058 Y-0.159 F7800.000
G1 F600
G1 X-0.000 Y-0.174 E2.05139
G1 X0.087 Y-0.151 E2.05272
G1 X0.151 Y-0.087 E2.05406
G1 X0.174 Y-0.000 E2.05540
G1 X0.151 Y0.087 E2.05674
G1 X0.087 Y0.151 E2.05808
G1 X-0.000 Y0.174 E2.05942
G1 X-0.087 Y0.151 E2.06076
G1 X-0.151 Y0.087 E2.06210
G1 X-0.174 Y-0.000 E2.06343
G1 X-0.151 Y-0.087 E2.06477
G1 X-0.108 Y-0.130 E2.06567
G1 X-0.431 Y-0.453 F7800.000
G1 F600
G1 X-0.324 Y-0.561 E2.06793
G1 X0.000 Y-0.647 E2.07291
G1 X0.324 Y-0.561 E2.07788
G1 X0.561 Y-0.324 E2.08286
G1 X0.647 Y-0.000 E2.08783
G1 X0.561 Y0.324 E2.09281
G1 X0.324 Y0.561 E2.09778
G1 X-0.000 Y0.647 E2.10276
G1 X-0.324 Y0.561 E2.10773
G1 X-0.561 Y0.324 E2.11271
G1 X-0.647 Y-0.000 E2.11768
G1 X-0.561 Y-0.324 E2.12266
G1 X-0.474 Y-0.411 E2.12448
G1 X-0.281 Y-0.430 F7800.000
M106 S127.5
G1 Z0.950 F7800.000
G1 X0.226 Y0.007 F7800.000
G1 F600
G1 X0.197 Y0.114 E2.12612
G1 X0.114 Y0.197 E2.12787
G1 X-0.000 Y0.228 E2.12962
G1 X-0.114 Y0.197 E2.13137
G1 X-0.197 Y0.114 E2.13312
G1 X-0.228 Y-0.000 E2.13487
G1 X-0.197 Y-0.114 E2.13662
G1 X-0.114 Y-0.197 E2.13837
G1 X-0.000 Y-0.228 E2.14012
G1 X0.114 Y-0.197 E2.14187
G1 X0.197 Y-0.114 E2.14362
G1 X0.214 Y-0.051 E2.14460
G1 X0.656 Y-0.169 F7800.000
G1 F600
G1 X0.701 Y0.000 E2.14719
G1 X0.607 Y0.350 E2.15258
G1 X0.350 Y0.607 E2.15797
G1 X0.000 Y0.701 E2.16335
G1 X-0.350 Y0.607 E2.16874
G1 X-0.607 Y0.350 E2.17413
G1 X-0.701 Y-0.000 E2.17951
G1 X-0.607 Y-0.350 E2.18490
G1 X-0.350 Y-0.607 E2.19029
G1 X-0.000 Y-0.701 E2.19568
G1 X0.350 Y-0.607 E2.20106
G1 X0.607 Y-0.350 E2.20645
G1 X0.640 Y-0.227 E2.20835
G1 X0.547 Y-0.032 F7800.000
G1 Z1.150 F7800.000
G1 X-0.202 Y-0.146 F7800.000
G1 F600
G1 X-0.127 Y-0.220 E2.20991
G1 X-0.000 Y-0.255 E2.21187
G1 X0.127 Y-0.220 E2.21382
G1 X0.220 Y-0.127 E2.21578
G1 X0.255 Y-0.000 E2.21774
G1 X0.220 Y0.127 E2.21969
G1 X0.127 Y0.220 E2.22165
G1 X-0.000 Y0.255 E2.22361
G1 X-0.127 Y0.220 E2.22556
G1 X-0.220 Y0.127 E2.22752
G1 X-0.255 Y-0.000 E2.22947
G1 X-0.229 Y-0.095 E2.23094
G1 X-0.671 Y-0.213 F7800.000
G1 F600
G1 X-0.630 Y-0.364 E2.23325
G1 X-0.364 Y-0.630 E2.23884
G1 X-0.000 Y-0.728 E2.24444
G1 X0.364 Y-0.630 E2.25003
G1 X0.630 Y-0.364 E2.25562
G1 X0.728 Y-0.000 E2.26121
G1 X0.630 Y0.364 E2.26681
G1 X0.364 Y0.630 E2.27240
G1 X-0.000 Y0.728 E2.27799
G1 X-0.364 Y0.630 E2.28359
G1 X-0.630 Y0.364 E2.28918
G1 X-0.728 Y-0.000 E2.29477
G1 X-0.686 Y-0.155 E2.29716
G1 X-0.525 Y-0.270 F7800.000
G1 Z1.350 F7800.000
G1 X-0.088 Y-0.178 F7800.000
G1 F600
G1 X-0.000 Y-0.201 E2.29851
G1 X0.100 Y-0.174 E2.30005
G1 X0.174 Y-0.100 E2.30160
G1 X0.201 Y-0.000 E2.30314
G1 X0.174 Y0.100 E2.30469
G1 X0.100 Y0.174 E2.30623
G1 X-0.000 Y0.201 E2.30777
G1 X-0.100 Y0.174 E2.30932
G1 X-0.174 Y0.100 E2.31086
G1 X-0.201 Y-0.000 E2.31241
G1 X-0.174 Y-0.100 E2.31395
G1 X-0.133 Y-0.141 E2.31481
G1 X-0.457 Y-0.464 F7800.000
G1 F600
G1 X-0.337 Y-0.584 E2.31732
G1 X-0.000 Y-0.674 E2.32250
G1 X0.337 Y-0.584 E2.32768
G1 X0.584 Y-0.337 E2.33286
G1 X0.674 Y-0.000 E2.33804
G1 X0.584 Y0.337 E2.34322
G1 X0.337 Y0.584 E2.34840
G1 X-0.000 Y0.674 E2.35358
G1 X-0.337 Y0.584 E2.35877
G1 X-0.584 Y0.337 E2.36395
G1 X-0.674 Y-0.000 E2.36913
G1 X-0.584 Y-0.337 E2.37431
G1 X-0.499 Y-0.422 E2.37609
G1 X-0.289 Y-0.440 F7800.000
G1 Z1.550 F7800.000
G1 X-0.123 Y0.078 F7800.000
G1 F600
G1 X-0.147 Y0.000 E2.37731
G1 X-0.128 Y-0.074 E2.37844
G1 X-0.074 Y-0.128 E2.37957
G1 X0.000 Y-0.147 E2.38070
G1 X0.074 Y-0.128 E2.38184
G1 X0.128 Y-0.074 E2.38297
G1 X0.147 Y0.000 E2.38410
G1 X0.128 Y0.074 E2.38523
G1 X0.074 Y0.128 E2.38637
G1 X-0.000 Y0.147 E2.38750
G1 X-0.081 Y0.121 E2.38876
G1 X-0.404 Y0.444 F7800.000
G1 F600
G1 X-0.537 Y0.310 E2.39157
G1 X-0.621 Y0.000 E2.39634
G1 X-0.537 Y-0.310 E2.40111
G1 X-0.310 Y-0.537 E2.40587
G1 X0.000 Y-0.621 E2.41064
G1 X0.310 Y-0.537 E2.41541
G1 X0.537 Y-0.310 E2.42018
G1 X0.621 Y0.000 E2.42495
G1 X0.537 Y0.310 E2.42972
G1 X0.310 Y0.537 E2.43449
G1 X-0.000 Y0.621 E2.43926
G1 X-0.310 Y0.537 E2.44403
G1 X-0.361 Y0.486 E2.44510
G1 X-0.378 Y0.257 F7800.000
G1 Z1.750 F7800.000
G1 X0.209 Y0.401 F7800.000
G1 F600
G1 X-0.000 Y0.457 E2.44832
G1 X-0.229 Y0.396 E2.45184
G1 X-0.396 Y0.229 E2.45535
G1 X-0.457 Y-0.000 E2.45886
G1 X-0.396 Y-0.229 E2.46238
G1 X-0.229 Y-0.396 E2.46589
G1 X-0.000 Y-0.457 E2.46940
G1 X0.229 Y-0.396 E2.47292
G1 X0.396 Y-0.229 E2.47643
G1 X0.457 Y-0.000 E2.47994
G1 X0.396 Y0.229 E2.48346
G1 X0.257 Y0.368 E2.48638
G1 X0.023 Y0.291 F7800.000
G1 Z1.950 F7800.000
G1 X0.245 Y0.046 F7800.000
G1 F600
G1 X0.223 Y0.129 E2.48765
G1 X0.129 Y0.223 E2.48962
G1 X-0.000 Y0.257 E2.49160
G1 X-0.129 Y0.223 E2.49358
G1 X-0.223 Y0.129 E2.49555
G1 X-0.253 Y0.015 E2.49731
G1 X-0.219 Y-0.132 E2.49954
G1 X-0.129 Y-0.223 E2.50145
G1 X-0.000 Y-0.257 E2.50342
G1 X0.114 Y-0.227 E2.50518
G1 X0.224 Y-0.124 E2.50741
G1 X0.254 Y-0.012 E2.50913
G1 X0.170 Y0.087 F7800.000
G1 E0.50913 F2400.00000
G92 E0
M107
; Filament-specific end gcode 
;END gcode for filament

M104 S0 ; turn off temperature
G28 X0  ; home X axis
M84     ; disable motors

M140 S0 ; set bed temperature
; filament used = 2.1mm (0.0cm3)
; total filament cost = 0.0

; avoid_crossing_perimeters = 0
; bed_shape = -90x-90,90x-90,90x90,-90x90
; bed_temperature = 110
; before_layer_gcode = 
; between_objects_gcode = 
; bridge_acceleration = 0
; bridge_fan_speed = 100
; brim_connections_width = 0
; brim_width = 0
; complete_objects = 0
; cooling = 1
; default_acceleration = 0
; disable_fan_first_layers = 3
; duplicate_distance = 6
; end_filament_gcode = "; Filament-specific end gcode \n;END gcode for filament\n"
; end_gcode = M104 S0 ; turn off temperature\nG28 X0  ; home X axis\nM84     ; disable motors\n
; extruder_clearance_height = 20
; extruder_clearance_radius = 20
; extruder_offset = 0x0
; extrusion_axis = E
; extrusion_multiplier = 1
; fan_always_on = 0
; fan_below_layer_time = 60
; filament_colour = #FEF50D
; filament_cost = 0
; filament_density = 0
; filament_diameter = 2.8
; filament_max_volumetric_speed = 0
; filament_notes = ""
; first_layer_acceleration = 0
; first_layer_bed_temperature = 120
; first_layer_extrusion_width = 200%
; first_layer_speed = 30
; first_layer_temperature = 250
; gcode_arcs = 0
; gcode_comments = 0
; gcode_flavor = reprap
; has_heatbed = 1
; infill_acceleration = 0
; infill_first = 0
; interior_brim_width = 0
; layer_gcode = 
; max_fan_speed = 50
; max_layer_height = 0.3
; max_print_speed = 80
; max_volumetric_speed = 0
; min_fan_speed = 35
; min_layer_height = 0.15
; min_print_speed = 10
; min_skirt_length = 0
; notes = 
; nozzle_diameter = 0.4
; only_retract_when_crossing_perimeters = 1
; ooze_prevention = 0
; output_filename_format = [input_filename_base].gcode
; perimeter_acceleration = 0
; post_process = 
; pressure_advance = 0
; printer_notes = 
; resolution = 0
; retract_before_travel = 2
; retract_layer_change = 0
; retract_length = 2
; retract_length_toolchange = 10
; retract_lift = 0
; retract_lift_above = 0
; retract_lift_below = 0
; retract_restart_extra = 0
; retract_restart_extra_toolchange = 0
; retract_speed = 40
; skirt_distance = 6
; skirt_height = 1
; skirts = 1
; slowdown_below_layer_time = 5
; spiral_vase = 0
; standby_temperature_delta = -5
; start_filament_gcode = "; Filament gcode\n"
; start_gcode = G28 ; home all axes\nG1 Z5 F5000 ; lift nozzle\n
; temperature = 240
; threads = 8
; toolchange_gcode = 
; travel_speed = 130
; use_firmware_retraction = 0
; use_relative_e_distances = 0
; use_set_and_wait_bed = 0
; use_set_and_wait_extruder = 0
; use_volumetric_e = 0
; vibration_limit = 0
; wipe = 0
; z_offset = 0
; z_steps_per_mm = 0
; adaptive_slicing = 0
; adaptive_slicing_quality = 75%
; dont_support_bridges = 1
; extrusion_width = 0.5
; first_layer_height = 0.35
; infill_only_where_needed = 0
; interface_shells = 0
; layer_height = 0.2
; match_horizontal_surfaces = 0
; raft_layers = 0
; regions_overlap = 0
; seam_position = random
; sequential_print_priority = 0
; support_material = 0
; support_material_angle = 0
; support_material_buildplate_only = 0
; support_material_contact_distance = 0.2
; support_material_enforce_layers = 0
; support_material_extruder = 1
; support_material_extrusion_width = 0
; support_material_interface_extruder = 1
; support_material_interface_extrusion_width = 0
; support_material_interface_layers = 3
; support_material_interface_spacing = 0
; support_material_interface_speed = 100%
; support_material_max_layers = 0
; support_material_pattern = pillars
; support_material_spacing = 2.5
; support_material_speed = 60
; support_material_threshold = 60%
; xy_size_compensation = 0
; bottom_infill_pattern = rectilinear
; bottom_solid_layers = 3
; bridge_flow_ratio = 1
; bridge_speed = 60
; external_perimeter_extrusion_width = 0
; external_perimeter_speed = 51%
; external_perimeters_first = 0
; extra_perimeters = 1
; fill_angle = 45
; fill_density = 35%
; fill_gaps = 1
; fill_pattern = rectilinear
; gap_fill_speed = 20
; infill_every_layers = 1
; infill_extruder = 1
; infill_extrusion_width = 0
; infill_overlap = 15%
; infill_speed = 80
; overhangs = 1
; perimeter_extruder = 1
; perimeter_extrusion_width = 0
; perimeter_speed = 60
; perimeters = 3
; small_perimeter_speed = 15
; solid_infill_below_area = 70
; solid_infill_every_layers = 0
; solid_infill_extruder = 1
; solid_infill_extrusion_width = 0
; solid_infill_speed = 20
; thin_walls = 1
; top_infill_extrusion_width = 0
; top_infill_pattern = rectilinear
; top_solid_infill_speed = 15
; top_solid_layers = 3
