; generated by Slic3r 1.3.0 on 2020-09-14 at 17:34:43

; external perimeters extrusion width = 0.50mm (2.80mm^3/s)
; perimeters extrusion width = 0.50mm (5.48mm^3/s)
; infill extrusion width = 0.50mm (7.31mm^3/s)
; solid infill extrusion width = 0.50mm (1.83mm^3/s)
; top infill extrusion width = 0.50mm (1.37mm^3/s)

M107
M190 S120 ; set bed temperature and wait for it to be reached
M104 S250 ; set temperature
G28 ; home all axes
G1 Z5 F5000 ; lift nozzle

; Filament gcode

M109 S250 ; set temperature and wait for it to be reached
G21 ; set units to millimeters
G90 ; use absolute coordinates
M82 ; use absolute distances for extrusion
G92 E0
G1 Z0.350 F7800.000
G1 E-2.00000 F2400.00000
G92 E0
G1 X1.000 Y7.625 F7800.000
G1 E2.00000 F2400.00000
G1 F613.503
G1 X-1.000 Y7.625 E2.07104
G1 X-3.259 Y7.228 E2.15250
G1 X-5.247 Y6.085 E2.23396
G1 X-6.726 Y4.332 E2.31542
G1 X-7.519 Y2.180 E2.39689
G1 X-7.625 Y1.000 E2.43896
G1 X-7.625 Y-1.000 E2.51000
G1 X-7.228 Y-3.259 E2.59146
G1 X-6.085 Y-5.247 E2.67292
G1 X-4.332 Y-6.726 E2.75438
G1 X-2.180 Y-7.519 E2.83585
G1 X-1.000 Y-7.625 E2.87792
G1 X1.000 Y-7.625 E2.94896
G1 X3.259 Y-7.228 E3.03042
G1 X5.247 Y-6.085 E3.11188
G1 X6.726 Y-4.332 E3.19334
G1 X7.519 Y-2.180 E3.27481
G1 X7.625 Y-1.000 E3.31688
G1 X7.625 Y1.000 E3.38792
G1 X7.228 Y3.259 E3.46938
G1 X6.085 Y5.247 E3.55084
G1 X4.332 Y6.726 E3.63230
G1 X2.180 Y7.519 E3.71377
G1 X1.060 Y7.620 E3.75371
G1 E1.75371 F2400.00000
G92 E0
G1 X-0.650 Y0.356 F7800.000
G1 E2.00000 F2400.00000
G1 F1800
G1 X-0.650 Y-0.650 E2.03572
G1 X0.650 Y-0.650 E2.08190
G1 X0.650 Y0.650 E2.12807
G1 X-0.650 Y0.650 E2.17425
G1 X-0.650 Y0.416 E2.18257
G1 X-0.425 Y0.025 F7800.000
M104 S240 ; set temperature
M140 S110 ; set bed temperature
G1 Z0.550 F7800.000
G1 X-0.100 Y-0.293 F7800.000
G1 F600
G1 X0.293 Y-0.293 E2.18840
G1 X0.293 Y0.293 E2.19710
G1 X-0.293 Y0.293 E2.20580
G1 X-0.293 Y-0.293 E2.21449
G1 X-0.160 Y-0.293 E2.21647
G1 X-0.160 Y-0.750 F7800.000
G1 F600
G1 X0.750 Y-0.750 E2.22998
G1 X0.750 Y0.750 E2.25225
G1 X-0.750 Y0.750 E2.27452
G1 X-0.750 Y-0.750 E2.29679
G1 X-0.220 Y-0.750 E2.30466
G1 X0.159 Y-0.508 F7800.000
G1 Z0.750 F7800.000
G1 X0.293 Y0.010 F7800.000
G1 F600
G1 X0.293 Y0.293 E2.30886
G1 X-0.293 Y0.293 E2.31755
G1 X-0.293 Y-0.293 E2.32625
G1 X0.293 Y-0.293 E2.33495
G1 X0.293 Y-0.050 E2.33856
G1 X0.750 Y-0.050 F7800.000
G1 F600
G1 X0.750 Y0.750 E2.35043
G1 X-0.750 Y0.750 E2.37270
G1 X-0.750 Y-0.750 E2.39497
G1 X0.750 Y-0.750 E2.41724
G1 X0.750 Y-0.110 E2.42674
G1 X0.502 Y0.264 F7800.000
M106 S127.5
G1 Z0.950 F7800.000
G1 X-0.293 Y-0.173 F7800.000
G1 F600
G1 X-0.293 Y-0.293 E2.42853
G1 X0.293 Y-0.293 E2.43722
G1 X0.293 Y0.293 E2.44592
G1 X-0.293 Y0.293 E2.45462
G1 X-0.293 Y-0.113 E2.46064
G1 X-0.750 Y-0.113 F7800.000
G1 F600
G1 X-0.750 Y-0.750 E2.47010
G1 X0.750 Y-0.750 E2.49237
G1 X0.750 Y0.750 E2.51464
G1 X-0.750 Y0.750 E2.53691
G1 X-0.750 Y-0.053 E2.54883
G1 X-0.493 Y-0.419 F7800.000
G1 Z1.150 F7800.000
G1 X-0.129 Y-0.293 F7800.000
G1 F600
G1 X0.293 Y-0.293 E2.55509
G1 X0.293 Y0.293 E2.56379
G1 X-0.293 Y0.293 E2.57248
G1 X-0.293 Y-0.293 E2.58118
G1 X-0.189 Y-0.293 E2.58273
G1 X-0.189 Y-0.750 F7800.000
G1 F600
G1 X0.750 Y-0.750 E2.59666
G1 X0.750 Y0.750 E2.61893
G1 X-0.750 Y0.750 E2.64120
G1 X-0.750 Y-0.750 E2.66347
G1 X-0.249 Y-0.750 E2.67091
G1 X0.131 Y-0.510 F7800.000
G1 Z1.350 F7800.000
G1 X-0.293 Y0.158 F7800.000
G1 F600
G1 X-0.293 Y-0.293 E2.67760
G1 X0.293 Y-0.293 E2.68630
G1 X0.293 Y0.293 E2.69500
G1 X-0.293 Y0.293 E2.70370
G1 X-0.293 Y0.218 E2.70481
G1 X-0.750 Y0.218 F7800.000
G1 F600
G1 X-0.750 Y-0.750 E2.71918
G1 X0.750 Y-0.750 E2.74145
G1 X0.750 Y0.750 E2.76372
G1 X-0.750 Y0.750 E2.78599
G1 X-0.750 Y0.278 E2.79300
G1 X-0.512 Y-0.104 F7800.000
G1 Z1.550 F7800.000
G1 X0.135 Y0.293 F7800.000
G1 F600
G1 X-0.293 Y0.293 E2.79935
G1 X-0.293 Y-0.293 E2.80805
G1 X0.293 Y-0.293 E2.81675
G1 X0.293 Y0.293 E2.82545
G1 X0.195 Y0.293 E2.82690
G1 X0.195 Y0.750 F7800.000
G1 F600
G1 X-0.750 Y0.750 E2.84093
G1 X-0.750 Y-0.750 E2.86320
G1 X0.750 Y-0.750 E2.88547
G1 X0.750 Y0.750 E2.90774
G1 X0.255 Y0.750 E2.91509
G1 X-0.125 Y0.511 F7800.000
G1 Z1.750 F7800.000
G1 X0.293 Y0.054 F7800.000
G1 F600
G1 X0.293 Y0.293 E2.91864
G1 X-0.293 Y0.293 E2.92733
G1 X-0.293 Y-0.293 E2.93603
G1 X0.293 Y-0.293 E2.94473
G1 X0.293 Y-0.006 E2.94899
G1 X0.750 Y-0.006 F7800.000
G1 F600
G1 X0.750 Y0.750 E2.96021
G1 X-0.750 Y0.750 E2.98248
G1 X-0.750 Y-0.750 E3.00475
G1 X0.750 Y-0.750 E3.02702
G1 X0.750 Y-0.066 E3.03717
G1 X0.499 Y0.306 F7800.000
G1 Z1.950 F7800.000
G1 X0.098 Y0.293 F7800.000
G1 F600
G1 X-0.293 Y0.293 E3.04297
G1 X-0.293 Y-0.293 E3.05167
G1 X0.293 Y-0.293 E3.06036
G1 X0.293 Y0.293 E3.06906
G1 X0.158 Y0.293 E3.07107
G1 X0.158 Y0.750 F7800.000
G1 F600
G1 X-0.750 Y0.750 E3.08455
G1 X-0.750 Y-0.750 E3.10681
G1 X0.750 Y-0.750 E3.12908
G1 X0.750 Y0.750 E3.15135
G1 X0.218 Y0.750 E3.15926
G1 X-0.161 Y0.508 F7800.000
G1 Z2.150 F7800.000
G1 X-0.192 Y0.264 F7800.000
G1 F600
G1 X-0.338 Y0.238 E3.16146
G1 X-0.235 Y-0.339 E3.17016
G1 X0.339 Y-0.238 E3.17881
G1 X0.238 Y0.339 E3.18751
G1 X-0.133 Y0.274 E3.19310
G1 X-0.212 Y0.724 F7800.000
G1 F600
G1 X-0.868 Y0.608 E3.20299
G1 X-0.605 Y-0.868 E3.22526
G1 X0.869 Y-0.608 E3.24747
G1 X0.608 Y0.869 E3.26974
G1 X-0.153 Y0.735 E3.28122
G1 X-0.471 Y0.419 F7800.000
G1 Z2.350 F7800.000
G1 X-0.010 Y-0.299 F7800.000
G1 F600
G1 X0.339 Y-0.238 E3.28649
G1 X0.238 Y0.339 E3.29519
G1 X-0.339 Y0.238 E3.30388
G1 X-0.238 Y-0.339 E3.31258
G1 X-0.069 Y-0.310 E3.31512
G1 X0.010 Y-0.760 F7800.000
G1 F600
G1 X0.869 Y-0.608 E3.32807
G1 X0.608 Y0.869 E3.35033
G1 X-0.869 Y0.608 E3.37260
G1 X-0.608 Y-0.869 E3.39487
G1 X-0.049 Y-0.770 E3.40331
G1 X0.280 Y-0.464 F7800.000
G1 Z2.550 F7800.000
G1 X0.312 Y-0.080 F7800.000
G1 F600
G1 X0.238 Y0.339 E3.40964
G1 X-0.339 Y0.238 E3.41834
G1 X-0.238 Y-0.339 E3.42703
G1 X0.339 Y-0.238 E3.43573
G1 X0.322 Y-0.140 E3.43721
G1 X0.772 Y-0.060 F7800.000
G1 F600
G1 X0.608 Y0.869 E3.45122
G1 X-0.869 Y0.608 E3.47349
G1 X-0.608 Y-0.869 E3.49575
G1 X0.869 Y-0.608 E3.51802
G1 X0.783 Y-0.119 E3.52540
G1 X0.481 Y0.214 F7800.000
G1 Z2.750 F7800.000
G1 X-0.269 Y-0.159 F7800.000
G1 F600
G1 X-0.238 Y-0.339 E3.52811
G1 X0.339 Y-0.238 E3.53681
G1 X0.238 Y0.339 E3.54551
G1 X-0.339 Y0.238 E3.55420
G1 X-0.280 Y-0.100 E3.55930
G1 X-0.730 Y-0.180 F7800.000
G1 F600
G1 X-0.608 Y-0.869 E3.56969
G1 X0.869 Y-0.608 E3.59196
G1 X0.608 Y0.869 E3.61423
G1 X-0.869 Y0.608 E3.63649
G1 X-0.740 Y-0.121 E3.64748
G1 X-0.426 Y-0.440 F7800.000
G1 Z2.950 F7800.000
G1 X-0.253 Y0.253 F7800.000
G1 F600
G1 X-0.339 Y0.238 E3.64878
G1 X-0.238 Y-0.339 E3.65748
G1 X0.339 Y-0.238 E3.66618
G1 X0.238 Y0.339 E3.67487
G1 X-0.194 Y0.263 E3.68138
G1 X-0.273 Y0.713 F7800.000
G1 F600
G1 X-0.869 Y0.608 E3.69036
G1 X-0.608 Y-0.869 E3.71263
G1 X0.869 Y-0.608 E3.73490
G1 X0.608 Y0.869 E3.75717
G1 X-0.214 Y0.724 E3.76957
G1 X-0.529 Y0.406 F7800.000
G1 Z3.150 F7800.000
G1 X0.268 Y0.166 F7800.000
G1 F600
G1 X0.238 Y0.339 E3.77218
G1 X-0.339 Y0.238 E3.78088
G1 X-0.238 Y-0.339 E3.78957
G1 X0.339 Y-0.238 E3.79827
G1 X0.279 Y0.107 E3.80347
G1 X0.729 Y0.187 F7800.000
G1 F600
G1 X0.608 Y0.869 E3.81375
G1 X-0.869 Y0.608 E3.83602
G1 X-0.608 Y-0.869 E3.85829
G1 X0.869 Y-0.608 E3.88056
G1 X0.739 Y0.127 E3.89166
G1 X0.425 Y0.447 F7800.000
G1 Z3.350 F7800.000
G1 X0.258 Y-0.252 F7800.000
G1 F600
G1 X0.339 Y-0.238 E3.89288
G1 X0.238 Y0.339 E3.90158
G1 X-0.339 Y0.238 E3.91028
G1 X-0.238 Y-0.339 E3.91898
G1 X0.199 Y-0.262 E3.92555
G1 X0.278 Y-0.713 F7800.000
G1 F600
G1 X0.869 Y-0.608 E3.93446
G1 X0.608 Y0.869 E3.95673
G1 X-0.869 Y0.608 E3.97900
G1 X-0.608 Y-0.869 E4.00127
G1 X0.219 Y-0.723 E4.01374
G1 X0.533 Y-0.405 F7800.000
G1 Z3.550 F7800.000
G1 X0.080 Y-0.283 F7800.000
G1 F600
G1 X0.339 Y-0.238 E4.01765
G1 X0.238 Y0.339 E4.02634
G1 X-0.339 Y0.238 E4.03504
G1 X-0.238 Y-0.339 E4.04374
G1 X0.021 Y-0.294 E4.04764
G1 X0.101 Y-0.744 F7800.000
G1 F600
G1 X0.869 Y-0.608 E4.05922
G1 X0.608 Y0.869 E4.08149
G1 X-0.869 Y0.608 E4.10376
G1 X-0.608 Y-0.869 E4.12603
G1 X0.041 Y-0.754 E4.13583
G1 X0.365 Y-0.444 F7800.000
G1 Z3.750 F7800.000
G1 X0.075 Y-0.284 F7800.000
G1 F600
G1 X0.339 Y-0.238 E4.13981
G1 X0.238 Y0.339 E4.14851
G1 X-0.339 Y0.238 E4.15721
G1 X-0.238 Y-0.339 E4.16590
G1 X0.016 Y-0.295 E4.16973
G1 X0.095 Y-0.745 F7800.000
G1 F600
G1 X0.869 Y-0.608 E4.18139
G1 X0.608 Y0.869 E4.20366
G1 X-0.869 Y0.608 E4.22593
G1 X-0.608 Y-0.869 E4.24820
G1 X0.036 Y-0.755 E4.25791
G1 X0.360 Y-0.445 F7800.000
G1 Z3.950 F7800.000
G1 X0.293 Y0.024 F7800.000
G1 F600
G1 X0.238 Y0.339 E4.26266
G1 X-0.339 Y0.238 E4.27136
G1 X-0.238 Y-0.339 E4.28006
G1 X0.339 Y-0.238 E4.28876
G1 X0.304 Y-0.035 E4.29181
G1 X0.754 Y0.044 F7800.000
G1 F600
G1 X0.608 Y0.869 E4.30424
G1 X-0.869 Y0.608 E4.32651
G1 X-0.608 Y-0.869 E4.34878
G1 X0.869 Y-0.608 E4.37105
G1 X0.764 Y-0.015 E4.38000
G1 X0.457 Y0.312 F7800.000
G1 Z4.150 F7800.000
G1 X0.261 Y0.139 F7800.000
G1 F600
G1 X0.175 Y0.375 E4.38374
G1 X-0.374 Y0.176 E4.39242
G1 X-0.173 Y-0.375 E4.40112
G1 X0.375 Y-0.175 E4.40977
G1 X0.282 Y0.082 E4.41384
G1 X0.711 Y0.238 F7800.000
G1 F600
G1 X0.448 Y0.961 E4.42526
G1 X-0.961 Y0.448 E4.44752
G1 X-0.445 Y-0.960 E4.46979
G1 X0.961 Y-0.448 E4.49201
G1 X0.732 Y0.182 E4.50197
G1 X0.370 Y0.446 F7800.000
G1 Z4.350 F7800.000
G1 X0.118 Y0.355 F7800.000
G1 F600
G1 X-0.375 Y0.175 E4.50977
G1 X-0.175 Y-0.375 E4.51846
G1 X0.375 Y-0.175 E4.52716
G1 X0.175 Y0.375 E4.53586
G1 X0.018 Y0.805 F7800.000
G1 F600
G1 X-0.961 Y0.448 E4.55134
G1 X-0.448 Y-0.961 E4.57361
G1 X0.961 Y-0.448 E4.59588
G1 X0.448 Y0.961 E4.61815
G1 X0.075 Y0.825 E4.62405
G1 X-0.207 Y0.475 F7800.000
G1 Z4.550 F7800.000
G1 X-0.019 Y0.305 F7800.000
G1 F600
G1 X-0.375 Y0.175 E4.62967
G1 X-0.175 Y-0.375 E4.63837
G1 X0.375 Y-0.175 E4.64707
G1 X0.175 Y0.375 E4.65577
G1 X0.037 Y0.325 E4.65795
G1 X-0.119 Y0.755 F7800.000
G1 F600
G1 X-0.961 Y0.448 E4.67125
G1 X-0.448 Y-0.961 E4.69352
G1 X0.961 Y-0.448 E4.71579
G1 X0.448 Y0.961 E4.73806
G1 X-0.063 Y0.775 E4.74613
G1 X-0.335 Y0.418 F7800.000
G1 Z4.750 F7800.000
G1 X0.119 Y-0.269 F7800.000
G1 F600
G1 X0.375 Y-0.175 E4.75019
G1 X0.175 Y0.375 E4.75889
G1 X-0.375 Y0.175 E4.76758
G1 X-0.175 Y-0.375 E4.77628
G1 X0.062 Y-0.289 E4.78003
G1 X0.219 Y-0.719 F7800.000
G1 F600
G1 X0.961 Y-0.448 E4.79176
G1 X0.448 Y0.961 E4.81403
G1 X-0.961 Y0.448 E4.83630
G1 X-0.448 Y-0.961 E4.85857
G1 X0.162 Y-0.739 E4.86822
G1 X0.428 Y-0.378 F7800.000
G1 Z4.950 F7800.000
G1 X-0.302 Y-0.026 F7800.000
G1 F600
G1 X-0.175 Y-0.375 E4.87374
G1 X0.375 Y-0.175 E4.88243
G1 X0.175 Y0.375 E4.89113
G1 X-0.375 Y0.175 E4.89983
G1 X-0.323 Y0.030 E4.90212
G1 X-0.752 Y-0.126 F7800.000
G1 F600
G1 X-0.448 Y-0.961 E4.91531
G1 X0.961 Y-0.448 E4.93758
G1 X0.448 Y0.961 E4.95985
G1 X-0.961 Y0.448 E4.98212
G1 X-0.773 Y-0.070 E4.99030
G1 X-0.415 Y-0.342 F7800.000
G1 Z5.150 F7800.000
G1 X0.306 Y-0.200 F7800.000
G1 F600
G1 X0.375 Y-0.175 E4.99140
G1 X0.175 Y0.375 E5.00010
G1 X-0.375 Y0.175 E5.00880
G1 X-0.175 Y-0.375 E5.01750
G1 X0.249 Y-0.221 E5.02420
G1 X0.406 Y-0.650 F7800.000
G1 F600
G1 X0.961 Y-0.448 E5.03298
G1 X0.448 Y0.961 E5.05525
G1 X-0.961 Y0.448 E5.07752
G1 X-0.448 Y-0.961 E5.09979
G1 X0.349 Y-0.671 E5.11239
G1 X0.603 Y-0.303 F7800.000
G1 Z5.350 F7800.000
G1 X0.193 Y0.326 F7800.000
G1 F600
G1 X0.175 Y0.375 E5.11317
G1 X-0.375 Y0.175 E5.12187
G1 X-0.175 Y-0.375 E5.13057
G1 X0.375 Y-0.175 E5.13927
G1 X0.214 Y0.269 E5.14629
G1 X0.643 Y0.426 F7800.000
G1 F600
G1 X0.448 Y0.961 E5.15475
G1 X-0.961 Y0.448 E5.17702
G1 X-0.448 Y-0.961 E5.19929
G1 X0.961 Y-0.448 E5.22156
G1 X0.664 Y0.369 E5.23448
G1 X0.295 Y0.622 F7800.000
G1 Z5.550 F7800.000
G1 X-0.066 Y0.288 F7800.000
G1 F600
G1 X-0.375 Y0.175 E5.23937
G1 X-0.175 Y-0.375 E5.24807
G1 X0.375 Y-0.175 E5.25677
G1 X0.175 Y0.375 E5.26546
G1 X-0.009 Y0.308 E5.26837
G1 X-0.165 Y0.738 F7800.000
G1 F600
G1 X-0.961 Y0.448 E5.28095
G1 X-0.448 Y-0.961 E5.30322
G1 X0.961 Y-0.448 E5.32549
G1 X0.448 Y0.961 E5.34776
G1 X-0.109 Y0.758 E5.35656
G1 X-0.378 Y0.399 F7800.000
G1 Z5.750 F7800.000
G1 X0.190 Y0.335 F7800.000
G1 F600
G1 X0.175 Y0.375 E5.35720
G1 X-0.375 Y0.175 E5.36590
G1 X-0.175 Y-0.375 E5.37459
G1 X0.375 Y-0.175 E5.38329
G1 X0.210 Y0.279 E5.39046
G1 X0.640 Y0.435 F7800.000
G1 F600
G1 X0.448 Y0.961 E5.39878
G1 X-0.961 Y0.448 E5.42104
G1 X-0.448 Y-0.961 E5.44331
G1 X0.961 Y-0.448 E5.46558
G1 X0.660 Y0.379 E5.47865
G1 X0.291 Y0.631 F7800.000
G1 Z5.950 F7800.000
G1 X0.211 Y0.276 F7800.000
G1 F600
G1 X0.175 Y0.375 E5.48022
G1 X-0.375 Y0.175 E5.48892
G1 X-0.175 Y-0.375 E5.49761
G1 X0.375 Y-0.175 E5.50631
G1 X0.232 Y0.220 E5.51255
G1 X0.661 Y0.376 F7800.000
G1 F600
G1 X0.448 Y0.961 E5.52179
G1 X-0.961 Y0.448 E5.54406
G1 X-0.448 Y-0.961 E5.56633
G1 X0.961 Y-0.448 E5.58860
G1 X0.682 Y0.320 E5.60073
G1 X0.315 Y0.575 F7800.000
G1 Z6.150 F7800.000
G1 X0.286 Y-0.173 F7800.000
G1 F600
G1 X0.400 Y-0.107 E5.60268
G1 X0.107 Y0.400 E5.61138
G1 X-0.399 Y0.108 E5.62006
G1 X-0.105 Y-0.399 E5.62875
G1 X0.234 Y-0.203 E5.63457
G1 X0.463 Y-0.599 F7800.000
G1 F600
G1 X1.025 Y-0.275 E5.64420
G1 X0.275 Y1.025 E5.66647
G1 X-1.024 Y0.275 E5.68873
G1 X-0.271 Y-1.023 E5.71100
G1 X0.411 Y-0.629 E5.72270
G1 X0.601 Y-0.223 F7800.000
G1 Z6.350 F7800.000
G1 X0.137 Y0.348 F7800.000
G1 F600
G1 X0.107 Y0.400 E5.72359
G1 X-0.400 Y0.107 E5.73229
G1 X-0.107 Y-0.400 E5.74098
G1 X0.400 Y-0.107 E5.74968
G1 X0.167 Y0.296 E5.75660
G1 X0.563 Y0.525 F7800.000
G1 F600
G1 X0.275 Y1.025 E5.76516
G1 X-1.025 Y0.275 E5.78743
G1 X-0.275 Y-1.025 E5.80970
G1 X1.025 Y-0.275 E5.83197
G1 X0.593 Y0.473 E5.84479
G1 X0.186 Y0.658 F7800.000
G1 Z6.550 F7800.000
G1 X0.217 Y0.210 F7800.000
G1 F600
G1 X0.107 Y0.400 E5.84805
G1 X-0.400 Y0.107 E5.85675
G1 X-0.107 Y-0.400 E5.86545
G1 X0.400 Y-0.107 E5.87414
G1 X0.247 Y0.158 E5.87868
G1 X0.643 Y0.386 F7800.000
G1 F600
G1 X0.275 Y1.025 E5.88963
G1 X-1.025 Y0.275 E5.91190
G1 X-0.275 Y-1.025 E5.93417
G1 X1.025 Y-0.275 E5.95644
G1 X0.673 Y0.334 E5.96687
G1 X0.270 Y0.530 F7800.000
G1 Z6.750 F7800.000
G1 X0.344 Y-0.140 F7800.000
G1 F600
G1 X0.400 Y-0.107 E5.96783
G1 X0.107 Y0.400 E5.97653
G1 X-0.400 Y0.107 E5.98523
G1 X-0.107 Y-0.400 E5.99393
G1 X0.292 Y-0.170 E6.00077
G1 X0.521 Y-0.565 F7800.000
G1 F600
G1 X1.025 Y-0.275 E6.00941
G1 X0.275 Y1.025 E6.03168
G1 X-1.025 Y0.275 E6.05395
G1 X-0.275 Y-1.025 E6.07622
G1 X0.469 Y-0.595 E6.08896
G1 X0.654 Y-0.188 F7800.000
G1 Z6.950 F7800.000
G1 X0.013 Y-0.331 F7800.000
G1 F600
G1 X0.400 Y-0.107 E6.09559
G1 X0.107 Y0.400 E6.10428
G1 X-0.400 Y0.107 E6.11298
G1 X-0.107 Y-0.400 E6.12168
G1 X-0.039 Y-0.361 E6.12286
G1 X0.190 Y-0.756 F7800.000
G1 F600
G1 X1.025 Y-0.275 E6.13716
G1 X0.275 Y1.025 E6.15943
G1 X-1.025 Y0.275 E6.18170
G1 X-0.275 Y-1.025 E6.20397
G1 X0.138 Y-0.786 E6.21104
G1 X0.349 Y-0.389 F7800.000
G1 Z7.150 F7800.000
G1 X-0.244 Y-0.164 F7800.000
G1 F600
G1 X-0.107 Y-0.400 E6.21510
G1 X0.400 Y-0.107 E6.22379
G1 X0.107 Y0.400 E6.23249
G1 X-0.400 Y0.107 E6.24119
G1 X-0.274 Y-0.112 E6.24494
G1 X-0.670 Y-0.340 F7800.000
G1 F600
G1 X-0.275 Y-1.025 E6.25667
G1 X1.025 Y-0.275 E6.27894
G1 X0.275 Y1.025 E6.30121
G1 X-1.025 Y0.275 E6.32348
G1 X-0.700 Y-0.288 E6.33313
G1 X-0.298 Y-0.487 F7800.000
G1 Z7.350 F7800.000
G1 X0.273 Y0.114 F7800.000
G1 F600
G1 X0.107 Y0.400 E6.33804
G1 X-0.400 Y0.107 E6.34673
G1 X-0.107 Y-0.400 E6.35543
G1 X0.400 Y-0.107 E6.36413
G1 X0.303 Y0.062 E6.36703
G1 X0.698 Y0.290 F7800.000
G1 F600
G1 X0.275 Y1.025 E6.37961
G1 X-1.025 Y0.275 E6.40188
G1 X-0.275 Y-1.025 E6.42415
G1 X1.025 Y-0.275 E6.44642
G1 X0.728 Y0.238 E6.45522
G1 X0.328 Y0.441 F7800.000
G1 Z7.550 F7800.000
G1 X-0.105 Y0.277 F7800.000
G1 F600
G1 X-0.400 Y0.107 E6.46027
G1 X-0.107 Y-0.400 E6.46897
G1 X0.400 Y-0.107 E6.47767
G1 X0.107 Y0.400 E6.48636
G1 X-0.053 Y0.307 E6.48911
G1 X-0.282 Y0.703 F7800.000
G1 F600
G1 X-1.025 Y0.275 E6.50185
G1 X-0.275 Y-1.025 E6.52412
G1 X1.025 Y-0.275 E6.54638
G1 X0.275 Y1.025 E6.56865
G1 X-0.230 Y0.733 E6.57730
G1 X-0.433 Y0.333 F7800.000
G1 Z7.750 F7800.000
G1 X-0.232 Y-0.185 F7800.000
G1 F600
G1 X-0.107 Y-0.400 E6.58099
G1 X0.400 Y-0.107 E6.58969
G1 X0.107 Y0.400 E6.59839
G1 X-0.400 Y0.107 E6.60708
G1 X-0.262 Y-0.133 E6.61120
G1 X-0.657 Y-0.361 F7800.000
G1 F600
G1 X-0.275 Y-1.025 E6.62257
