; generated by Slic3r 1.3.0 on 2020-09-11 at 10:59:17

; external perimeters extrusion width = 0.50mm (2.80mm^3/s)
; perimeters extrusion width = 0.50mm (5.48mm^3/s)
; infill extrusion width = 0.50mm (7.31mm^3/s)
; solid infill extrusion width = 0.50mm (1.83mm^3/s)
; top infill extrusion width = 0.50mm (1.37mm^3/s)

M107
M190 S120 ; set bed temperature and wait for it to be reached
M104 S250 ; set temperature
G28 ; home all axes
G1 Z5 F5000 ; lift nozzle

; Filament gcode

M109 S250 ; set temperature and wait for it to be reached
G21 ; set units to millimeters
G90 ; use absolute coordinates
M82 ; use absolute distances for extrusion
G92 E0
G1 Z0.350 F7800.000
G1 E-2.00000 F2400.00000
G92 E0
G1 X7.188 Y1.000 F7800.000
G1 E2.00000 F2400.00000
G1 F600
G1 X6.791 Y3.259 E2.08146
G1 X5.648 Y5.247 E2.16292
G1 X3.895 Y6.726 E2.24439
G1 X1.743 Y7.519 E2.32585
G1 X0.563 Y7.625 E2.36792
G1 X-0.563 Y7.625 E2.40795
G1 X-2.822 Y7.228 E2.48941
G1 X-4.810 Y6.085 E2.57087
G1 X-6.290 Y4.332 E2.65233
G1 X-7.082 Y2.180 E2.73380
G1 X-7.188 Y1.000 E2.77587
G1 X-7.188 Y-1.000 E2.84691
G1 X-6.791 Y-3.259 E2.92837
G1 X-5.648 Y-5.247 E3.00983
G1 X-3.895 Y-6.726 E3.09129
G1 X-1.743 Y-7.519 E3.17276
G1 X-0.563 Y-7.625 E3.21483
G1 X0.563 Y-7.625 E3.25486
G1 X2.822 Y-7.228 E3.33632
G1 X4.810 Y-6.085 E3.41778
G1 X6.290 Y-4.332 E3.49924
G1 X7.082 Y-2.180 E3.58070
G1 X7.188 Y-1.000 E3.62278
G1 X7.188 Y0.940 E3.69169
G1 E1.69169 F2400.00000
G92 E0
G1 X-0.213 Y0.117 F7800.000
G1 E2.00000 F2400.00000
G1 F1800
G1 X-0.213 Y-0.650 E2.02724
G1 X0.213 Y-0.650 E2.04240
G1 X0.213 Y0.650 E2.08858
G1 X-0.213 Y0.650 E2.10374
G1 X-0.213 Y0.177 E2.12055
G1 X0.080 Y-0.155 F7800.000
M104 S240 ; set temperature
M140 S110 ; set bed temperature
G1 Z0.550 F7800.000
G1 X-0.199 Y-0.750 F7800.000
G1 F600
G1 X0.584 Y-0.750 E2.13218
G1 X0.584 Y0.750 E2.15445
G1 X-0.584 Y0.750 E2.17180
G1 X-0.584 Y-0.750 E2.19407
G1 X-0.259 Y-0.750 E2.19890
G1 X0.129 Y-0.522 F7800.000
G1 X0.176 Y-0.244 F7800.000
G1 F600
G1 X0.079 Y-0.341 E2.20135
G1 X-0.176 Y-0.341 E2.20588
G1 X-0.176 Y0.180 E2.21517
G1 X-0.014 Y0.341 E2.21924
G1 X-0.079 Y0.341 E2.22040
G1 X-0.079 Y0.277 E2.22155
G1 Z0.750 F7800.000
G1 X0.227 Y0.008 F7800.000
G1 F600
G1 X0.227 Y0.293 E2.22579
G1 X-0.227 Y0.293 E2.23252
G1 X-0.227 Y-0.293 E2.24122
G1 X0.227 Y-0.293 E2.24795
G1 X0.227 Y-0.052 E2.25152
G1 X0.684 Y-0.052 F7800.000
G1 F600
G1 X0.684 Y0.750 E2.26343
G1 X-0.684 Y0.750 E2.28373
G1 X-0.684 Y-0.750 E2.30600
G1 X0.684 Y-0.750 E2.32631
G1 X0.684 Y-0.112 E2.33578
G1 X0.432 Y0.259 F7800.000
M106 S127.5
G1 Z0.950 F7800.000
G1 X-0.278 Y-0.164 F7800.000
G1 F600
G1 X-0.278 Y-0.293 E2.33769
G1 X0.278 Y-0.293 E2.34595
G1 X0.278 Y0.293 E2.35465
G1 X-0.278 Y0.293 E2.36291
G1 X-0.278 Y-0.104 E2.36880
G1 X-0.735 Y-0.104 F7800.000
G1 F600
G1 X-0.735 Y-0.750 E2.37839
G1 X0.735 Y-0.750 E2.40022
G1 X0.735 Y0.750 E2.42249
G1 X-0.735 Y0.750 E2.44432
G1 X-0.735 Y-0.044 E2.45611
G1 X-0.478 Y-0.410 F7800.000
G1 Z1.150 F7800.000
G1 X-0.127 Y-0.293 F7800.000
G1 F600
G1 X0.288 Y-0.293 E2.46226
G1 X0.288 Y0.293 E2.47096
G1 X-0.288 Y0.293 E2.47951
G1 X-0.288 Y-0.293 E2.48821
G1 X-0.187 Y-0.293 E2.48971
G1 X-0.187 Y-0.750 F7800.000
G1 F600
G1 X0.745 Y-0.750 E2.50355
G1 X0.745 Y0.750 E2.52582
G1 X-0.745 Y0.750 E2.54794
G1 X-0.745 Y-0.750 E2.57021
G1 X-0.247 Y-0.750 E2.57761
G1 X0.134 Y-0.510 F7800.000
G1 Z1.350 F7800.000
G1 X-0.257 Y0.138 F7800.000
G1 F600
G1 X-0.257 Y-0.293 E2.58401
G1 X0.257 Y-0.293 E2.59164
G1 X0.257 Y0.293 E2.60034
G1 X-0.257 Y0.293 E2.60797
G1 X-0.257 Y0.198 E2.60938
G1 X-0.714 Y0.198 F7800.000
G1 F600
G1 X-0.714 Y-0.750 E2.62346
G1 X0.714 Y-0.750 E2.64466
G1 X0.714 Y0.750 E2.66693
G1 X-0.714 Y0.750 E2.68814
G1 X-0.714 Y0.258 E2.69543
G1 X-0.473 Y-0.121 F7800.000
G1 Z1.550 F7800.000
G1 X0.181 Y0.160 F7800.000
G1 F600
G1 X0.181 Y0.293 E2.69740
G1 X-0.181 Y0.293 E2.70277
G1 X-0.181 Y-0.293 E2.71147
G1 X0.181 Y-0.293 E2.71684
G1 X0.181 Y0.100 E2.72268
G1 X0.638 Y0.100 F7800.000
G1 F600
G1 X0.638 Y0.750 E2.73232
G1 X-0.638 Y0.750 E2.75126
G1 X-0.638 Y-0.750 E2.77353
G1 X0.638 Y-0.750 E2.79247
G1 X0.638 Y0.040 E2.80421
G1 X0.374 Y0.401 F7800.000
G1 Z1.750 F7800.000
G1 X0.504 Y0.093 F7800.000
G1 F600
G1 X0.504 Y0.750 E2.81396
G1 X-0.504 Y0.750 E2.82893
G1 X-0.504 Y-0.750 E2.85120
G1 X0.504 Y-0.750 E2.86616
G1 X0.504 Y0.033 E2.87778
G1 X0.230 Y0.384 F7800.000
G1 X0.095 Y-0.244 F7800.000
G1 F600
G1 X-0.002 Y-0.341 E2.87992
G1 X-0.095 Y-0.341 E2.88139
G1 X-0.095 Y0.244 E2.89053
G1 X0.002 Y0.341 E2.89267
G1 Z1.950 F7800.000
G1 X0.271 Y0.255 F7800.000
G1 F600
G1 X0.271 Y0.750 E2.90001
G1 X-0.271 Y0.750 E2.90805
G1 X-0.271 Y-0.750 E2.93032
G1 X0.271 Y-0.750 E2.93837
G1 X0.271 Y0.195 E2.95240
G1 X-0.038 Y0.510 F7800.000
G1 X-0.000 Y0.521 F7800.000
G1 F600
G1 X-0.000 Y-0.521 E2.95382
G1 E0.95382 F2400.00000
G92 E0
M107
; Filament-specific end gcode 
;END gcode for filament

M104 S0 ; turn off temperature
G28 X0  ; home X axis
M84     ; disable motors

M140 S0 ; set bed temperature
; filament used = 2.6mm (0.0cm3)
; total filament cost = 0.0

; avoid_crossing_perimeters = 0
; bed_shape = -90x-90,90x-90,90x90,-90x90
; bed_temperature = 110
; before_layer_gcode = 
; between_objects_gcode = 
; bridge_acceleration = 0
; bridge_fan_speed = 100
; brim_connections_width = 0
; brim_width = 0
; complete_objects = 0
; cooling = 1
; default_acceleration = 0
; disable_fan_first_layers = 3
; duplicate_distance = 6
; end_filament_gcode = "; Filament-specific end gcode \n;END gcode for filament\n"
; end_gcode = M104 S0 ; turn off temperature\nG28 X0  ; home X axis\nM84     ; disable motors\n
; extruder_clearance_height = 20
; extruder_clearance_radius = 20
; extruder_offset = 0x0
; extrusion_axis = E
; extrusion_multiplier = 1
; fan_always_on = 0
; fan_below_layer_time = 60
; filament_colour = #FEF50D
; filament_cost = 0
; filament_density = 0
; filament_diameter = 2.8
; filament_max_volumetric_speed = 0
; filament_notes = ""
; first_layer_acceleration = 0
; first_layer_bed_temperature = 120
; first_layer_extrusion_width = 200%
; first_layer_speed = 30
; first_layer_temperature = 250
; gcode_arcs = 0
; gcode_comments = 0
; gcode_flavor = reprap
; has_heatbed = 1
; infill_acceleration = 0
; infill_first = 0
; interior_brim_width = 0
; layer_gcode = 
; max_fan_speed = 50
; max_layer_height = 0.3
; max_print_speed = 80
; max_volumetric_speed = 0
; min_fan_speed = 35
; min_layer_height = 0.15
; min_print_speed = 10
; min_skirt_length = 0
; notes = 
; nozzle_diameter = 0.4
; only_retract_when_crossing_perimeters = 1
; ooze_prevention = 0
; output_filename_format = [input_filename_base].gcode
; perimeter_acceleration = 0
; post_process = 
; pressure_advance = 0
; printer_notes = 
; resolution = 0
; retract_before_travel = 2
; retract_layer_change = 0
; retract_length = 2
; retract_length_toolchange = 10
; retract_lift = 0
; retract_lift_above = 0
; retract_lift_below = 0
; retract_restart_extra = 0
; retract_restart_extra_toolchange = 0
; retract_speed = 40
; skirt_distance = 6
; skirt_height = 1
; skirts = 1
; slowdown_below_layer_time = 5
; spiral_vase = 0
; standby_temperature_delta = -5
; start_filament_gcode = "; Filament gcode\n"
; start_gcode = G28 ; home all axes\nG1 Z5 F5000 ; lift nozzle\n
; temperature = 240
; threads = 4
; toolchange_gcode = 
; travel_speed = 130
; use_firmware_retraction = 0
; use_relative_e_distances = 0
; use_set_and_wait_bed = 0
; use_set_and_wait_extruder = 0
; use_volumetric_e = 0
; vibration_limit = 0
; wipe = 0
; z_offset = 0
; z_steps_per_mm = 0
; adaptive_slicing = 0
; adaptive_slicing_quality = 75%
; dont_support_bridges = 1
; extrusion_width = 0.5
; first_layer_height = 0.35
; infill_only_where_needed = 0
; interface_shells = 0
; layer_height = 0.2
; match_horizontal_surfaces = 0
; raft_layers = 0
; regions_overlap = 0
; seam_position = random
; sequential_print_priority = 0
; support_material = 0
; support_material_angle = 0
; support_material_buildplate_only = 0
; support_material_contact_distance = 0.2
; support_material_enforce_layers = 0
; support_material_extruder = 1
; support_material_extrusion_width = 0
; support_material_interface_extruder = 1
; support_material_interface_extrusion_width = 0
; support_material_interface_layers = 3
; support_material_interface_spacing = 0
; support_material_interface_speed = 100%
; support_material_max_layers = 0
; support_material_pattern = pillars
; support_material_spacing = 2.5
; support_material_speed = 60
; support_material_threshold = 60%
; xy_size_compensation = 0
; bottom_infill_pattern = rectilinear
; bottom_solid_layers = 3
; bridge_flow_ratio = 1
; bridge_speed = 60
; external_perimeter_extrusion_width = 0
; external_perimeter_speed = 51%
; external_perimeters_first = 0
; extra_perimeters = 1
; fill_angle = 45
; fill_density = 35%
; fill_gaps = 1
; fill_pattern = rectilinear
; gap_fill_speed = 20
; infill_every_layers = 1
; infill_extruder = 1
; infill_extrusion_width = 0
; infill_overlap = 15%
; infill_speed = 80
; overhangs = 1
; perimeter_extruder = 1
; perimeter_extrusion_width = 0
; perimeter_speed = 60
; perimeters = 3
; small_perimeter_speed = 15
; solid_infill_below_area = 70
; solid_infill_every_layers = 0
; solid_infill_extruder = 1
; solid_infill_extrusion_width = 0
; solid_infill_speed = 20
; thin_walls = 1
; top_infill_extrusion_width = 0
; top_infill_pattern = rectilinear
; top_solid_infill_speed = 15
; top_solid_layers = 3
