; generated by Slic3r 1.3.0 on 2020-09-08 at 15:19:35

; external perimeters extrusion width = 0.50mm (2.80mm^3/s)
; perimeters extrusion width = 0.50mm (5.48mm^3/s)
; infill extrusion width = 0.50mm (7.31mm^3/s)
; solid infill extrusion width = 0.50mm (1.83mm^3/s)
; top infill extrusion width = 0.50mm (1.37mm^3/s)

M107
M190 S120 ; set bed temperature and wait for it to be reached
M104 S250 ; set temperature
G28 ; home all axes
G1 Z5 F5000 ; lift nozzle

; Filament gcode

M109 S250 ; set temperature and wait for it to be reached
G21 ; set units to millimeters
G90 ; use absolute coordinates
M82 ; use absolute distances for extrusion
G92 E0
G1 Z0.350 F7800.000
G1 E-2.00000 F2400.00000
G92 E0
G1 X-7.487 Y3.745 F7800.000
G1 E2.00000 F2400.00000
G1 F744.161
G1 X-8.273 Y1.591 E2.08146
G1 X-8.375 Y0.433 E2.12274
G1 X-8.375 Y-1.299 E2.18426
G1 X-7.978 Y-3.558 E2.26573
G1 X-7.487 Y-4.611 E2.30700
G1 X-6.987 Y-5.478 E2.34253
G1 X-5.514 Y-7.235 E2.42399
G1 X-3.530 Y-8.385 E2.50545
G1 X-1.250 Y-8.790 E2.58770
G1 X-0.250 Y-8.790 E2.62322
G1 X2.009 Y-8.393 E2.70468
G1 X3.062 Y-7.902 E2.74596
G1 X4.562 Y-7.036 E2.80748
G1 X6.320 Y-5.563 E2.88894
G1 X6.987 Y-4.611 E2.93022
G1 X7.487 Y-3.745 E2.96574
G1 X8.273 Y-1.591 E3.04721
G1 X8.375 Y-0.433 E3.08849
G1 X8.375 Y1.299 E3.15001
G1 X7.978 Y3.558 E3.23147
G1 X7.487 Y4.611 E3.27275
G1 X6.987 Y5.478 E3.30827
G1 X5.514 Y7.235 E3.38973
G1 X3.530 Y8.385 E3.47119
G1 X1.250 Y8.790 E3.55344
G1 X0.250 Y8.790 E3.58896
G1 X-2.009 Y8.393 E3.67042
G1 X-3.062 Y7.902 E3.71170
G1 X-4.562 Y7.036 E3.77322
G1 X-6.320 Y5.563 E3.85469
G1 X-6.987 Y4.611 E3.89597
G1 X-7.457 Y3.797 E3.92936
G1 E1.92936 F2400.00000
G92 E0
G1 X-0.470 Y0.324 F7800.000
G1 E2.00000 F2400.00000
G1 F744.161
G1 X-0.561 Y0.324 E2.00325
G1 X-0.187 Y-0.324 E2.02984
G1 X0.561 Y-0.324 E2.05643
G1 X0.187 Y0.324 E2.08302
G1 X-0.410 Y0.324 E2.10423
G1 X-0.410 Y0.949 F7800.000
G1 F1800
G1 X-1.048 Y0.949 E2.12689
G1 X-1.346 Y0.433 E2.14805
G1 X-0.846 Y-0.433 E2.18357
G1 X-1.346 Y-1.299 E2.21909
G1 X-1.048 Y-1.815 E2.24026
G1 X-0.452 Y-1.815 E2.26142
G1 X0.048 Y-0.949 E2.29694
G1 X1.048 Y-0.949 E2.33246
G1 X1.346 Y-0.433 E2.35362
G1 X0.846 Y0.433 E2.38914
G1 X1.346 Y1.299 E2.42466
G1 X1.048 Y1.815 E2.44583
G1 X0.452 Y1.815 E2.46699
G1 X-0.048 Y0.949 E2.50251
G1 X-0.350 Y0.949 E2.51324
G1 X-0.513 Y0.563 F7800.000
M104 S240 ; set temperature
M140 S110 ; set bed temperature
G1 Z0.550 F7800.000
G1 X-0.322 Y-0.875 F7800.000
G1 F600
G1 X-0.158 Y-0.592 E2.51810
G1 X0.842 Y-0.592 E2.53294
G1 X0.934 Y-0.433 E2.53567
G1 X0.434 Y0.433 E2.55051
G1 X0.934 Y1.299 E2.56536
G1 X0.842 Y1.458 E2.56809
G1 X0.658 Y1.458 E2.57081
G1 X0.158 Y0.592 E2.58566
G1 X-0.842 Y0.592 E2.60050
G1 X-0.934 Y0.433 E2.60323
G1 X-0.434 Y-0.433 E2.61807
G1 X-0.934 Y-1.299 E2.63292
G1 X-0.842 Y-1.458 E2.63565
G1 X-0.658 Y-1.458 E2.63837
G1 X-0.352 Y-0.927 E2.64747
G1 X0.044 Y-1.156 F7800.000
G1 F600
G1 X0.106 Y-1.049 E2.64930
G1 X1.106 Y-1.049 E2.66414
G1 X1.461 Y-0.433 E2.67471
G1 X0.961 Y0.433 E2.68955
G1 X1.461 Y1.299 E2.70440
G1 X1.106 Y1.915 E2.71496
G1 X0.394 Y1.915 E2.72552
G1 X-0.106 Y1.049 E2.74036
G1 X-1.106 Y1.049 E2.75521
G1 X-1.461 Y0.433 E2.76577
G1 X-0.961 Y-0.433 E2.78062
G1 X-1.461 Y-1.299 E2.79546
G1 X-1.106 Y-1.915 E2.80602
G1 X-0.394 Y-1.915 E2.81658
G1 X0.014 Y-1.208 E2.82871
G1 X-0.001 Y-1.041 F7800.000
G1 X0.282 Y-0.086 F7800.000
G1 F600
G1 X0.185 Y-0.183 E2.83103
G1 X-0.126 Y-0.183 E2.83630
G1 X-0.282 Y0.086 E2.84157
G1 X-0.185 Y0.183 E2.84389
G1 Z0.750 F7800.000
G1 X0.732 Y-0.084 F7800.000
G1 F600
G1 X0.434 Y0.433 E2.85275
G1 X0.934 Y1.299 E2.86760
G1 X0.842 Y1.458 E2.87032
G1 X0.658 Y1.458 E2.87305
G1 X0.158 Y0.592 E2.88790
G1 X-0.842 Y0.592 E2.90274
G1 X-0.934 Y0.433 E2.90547
G1 X-0.434 Y-0.433 E2.92031
G1 X-0.934 Y-1.299 E2.93516
G1 X-0.842 Y-1.458 E2.93788
G1 X-0.658 Y-1.458 E2.94061
G1 X-0.158 Y-0.592 E2.95545
G1 X0.842 Y-0.592 E2.97030
G1 X0.934 Y-0.433 E2.97303
G1 X0.762 Y-0.136 E2.97812
G1 X1.158 Y0.093 F7800.000
G1 F600
G1 X0.961 Y0.433 E2.98395
G1 X1.461 Y1.299 E2.99880
G1 X1.106 Y1.915 E3.00936
G1 X0.394 Y1.915 E3.01992
G1 X-0.106 Y1.049 E3.03477
G1 X-1.106 Y1.049 E3.04961
G1 X-1.461 Y0.433 E3.06017
G1 X-0.961 Y-0.433 E3.07502
G1 X-1.461 Y-1.299 E3.08987
G1 X-1.106 Y-1.915 E3.10043
G1 X-0.394 Y-1.915 E3.11099
G1 X0.106 Y-1.049 E3.12583
G1 X1.106 Y-1.049 E3.14068
G1 X1.461 Y-0.433 E3.15124
G1 X1.188 Y0.041 E3.15936
G1 X0.772 Y0.167 F7800.000
M106 S127.5
G1 Z0.950 F7800.000
G1 X-0.565 Y-0.660 F7800.000
G1 F600
G1 X-0.934 Y-1.299 E3.17032
G1 X-0.842 Y-1.458 E3.17304
G1 X-0.658 Y-1.458 E3.17577
G1 X-0.158 Y-0.592 E3.19061
G1 X0.842 Y-0.592 E3.20546
G1 X0.934 Y-0.433 E3.20818
G1 X0.434 Y0.433 E3.22303
G1 X0.934 Y1.299 E3.23788
G1 X0.842 Y1.458 E3.24060
G1 X0.658 Y1.458 E3.24333
G1 X0.158 Y0.592 E3.25817
G1 X-0.842 Y0.592 E3.27302
G1 X-0.934 Y0.433 E3.27574
G1 X-0.434 Y-0.433 E3.29059
G1 X-0.535 Y-0.608 E3.29359
G1 X-0.961 Y-0.433 F7800.000
G1 F600
G1 X-1.461 Y-1.299 E3.30843
G1 X-1.106 Y-1.915 E3.31899
G1 X-0.394 Y-1.915 E3.32956
G1 X0.106 Y-1.049 E3.34440
G1 X1.106 Y-1.049 E3.35925
G1 X1.461 Y-0.433 E3.36981
G1 X0.961 Y0.433 E3.38465
G1 X1.461 Y1.299 E3.39950
G1 X1.106 Y1.915 E3.41006
G1 X0.394 Y1.915 E3.42062
G1 X-0.106 Y1.049 E3.43547
G1 X-1.106 Y1.049 E3.45031
G1 X-1.461 Y0.433 E3.46087
G1 X-0.991 Y-0.381 E3.47483
G1 X-0.961 Y-0.433 F7800.000
G1 X-0.185 Y0.183 F7800.000
G1 F600
G1 X-0.282 Y0.086 E3.47715
G1 X-0.126 Y-0.183 E3.48242
G1 X0.185 Y-0.183 E3.48769
G1 X0.282 Y-0.086 E3.49001
G1 Z1.150 F7800.000
G1 X-0.328 Y-0.886 F7800.000
G1 F600
G1 X-0.158 Y-0.592 E3.49505
G1 X0.842 Y-0.592 E3.50990
G1 X0.934 Y-0.433 E3.51262
G1 X0.434 Y0.433 E3.52747
G1 X0.934 Y1.299 E3.54232
G1 X0.842 Y1.458 E3.54504
G1 X0.658 Y1.458 E3.54777
G1 X0.158 Y0.592 E3.56261
G1 X-0.842 Y0.592 E3.57746
G1 X-0.934 Y0.433 E3.58018
G1 X-0.434 Y-0.433 E3.59503
G1 X-0.934 Y-1.299 E3.60988
G1 X-0.842 Y-1.458 E3.61260
G1 X-0.658 Y-1.458 E3.61533
G1 X-0.358 Y-0.938 E3.62424
G1 X0.038 Y-1.167 F7800.000
G1 F600
G1 X0.106 Y-1.049 E3.62625
G1 X1.106 Y-1.049 E3.64110
G1 X1.461 Y-0.433 E3.65166
G1 X0.961 Y0.433 E3.66651
G1 X1.461 Y1.299 E3.68135
G1 X1.106 Y1.915 E3.69191
G1 X0.394 Y1.915 E3.70247
G1 X-0.106 Y1.049 E3.71732
G1 X-1.106 Y1.049 E3.73217
G1 X-1.461 Y0.433 E3.74273
G1 X-0.961 Y-0.433 E3.75757
G1 X-1.461 Y-1.299 E3.77242
G1 X-1.106 Y-1.915 E3.78298
G1 X-0.394 Y-1.915 E3.79354
G1 X0.008 Y-1.219 E3.80548
G1 X-0.030 Y-1.049 F7800.000
G1 Z1.350 F7800.000
G1 X-0.787 Y0.592 F7800.000
G1 F600
G1 X-0.842 Y0.592 E3.80630
G1 X-0.934 Y0.433 E3.80902
G1 X-0.434 Y-0.433 E3.82387
G1 X-0.934 Y-1.299 E3.83872
G1 X-0.842 Y-1.458 E3.84144
G1 X-0.658 Y-1.458 E3.84417
G1 X-0.158 Y-0.592 E3.85901
G1 X0.842 Y-0.592 E3.87386
G1 X0.934 Y-0.433 E3.87658
G1 X0.434 Y0.433 E3.89143
G1 X0.934 Y1.299 E3.90628
G1 X0.842 Y1.458 E3.90900
G1 X0.658 Y1.458 E3.91172
G1 X0.158 Y0.592 E3.92657
G1 X-0.727 Y0.592 E3.93971
G1 X-0.727 Y1.049 F7800.000
G1 F600
G1 X-1.106 Y1.049 E3.94533
G1 X-1.461 Y0.433 E3.95590
G1 X-0.961 Y-0.433 E3.97074
G1 X-1.461 Y-1.299 E3.98559
G1 X-1.106 Y-1.915 E3.99615
G1 X-0.394 Y-1.915 E4.00671
G1 X0.106 Y-1.049 E4.02156
G1 X1.106 Y-1.049 E4.03640
G1 X1.461 Y-0.433 E4.04696
G1 X0.961 Y0.433 E4.06181
G1 X1.461 Y1.299 E4.07665
G1 X1.106 Y1.915 E4.08721
G1 X0.394 Y1.915 E4.09778
G1 X-0.106 Y1.049 E4.11262
G1 X-0.667 Y1.049 E4.12095
G1 X-0.840 Y0.687 F7800.000
G1 X-0.185 Y0.183 F7800.000
G1 F600
G1 X-0.282 Y0.086 E4.12327
G1 X-0.126 Y-0.183 E4.12854
G1 X0.185 Y-0.183 E4.13381
G1 X0.282 Y-0.086 E4.13613
G1 Z1.550 F7800.000
G1 X0.329 Y0.887 F7800.000
G1 F600
G1 X0.158 Y0.592 E4.14119
G1 X-0.842 Y0.592 E4.15604
G1 X-0.934 Y0.433 E4.15876
G1 X-0.434 Y-0.433 E4.17361
G1 X-0.934 Y-1.299 E4.18846
G1 X-0.842 Y-1.458 E4.19118
G1 X-0.658 Y-1.458 E4.19391
G1 X-0.158 Y-0.592 E4.20875
G1 X0.842 Y-0.592 E4.22360
G1 X0.934 Y-0.433 E4.22632
G1 X0.434 Y0.433 E4.24117
G1 X0.934 Y1.299 E4.25602
G1 X0.842 Y1.458 E4.25874
G1 X0.658 Y1.458 E4.26146
G1 X0.359 Y0.939 E4.27036
G1 X-0.037 Y1.168 F7800.000
G1 F600
G1 X-0.106 Y1.049 E4.27239
G1 X-1.106 Y1.049 E4.28724
G1 X-1.461 Y0.433 E4.29780
G1 X-0.961 Y-0.433 E4.31265
G1 X-1.461 Y-1.299 E4.32749
G1 X-1.106 Y-1.915 E4.33805
G1 X-0.394 Y-1.915 E4.34861
G1 X0.106 Y-1.049 E4.36346
G1 X1.106 Y-1.049 E4.37831
G1 X1.461 Y-0.433 E4.38887
G1 X0.961 Y0.433 E4.40371
G1 X1.461 Y1.299 E4.41856
G1 X1.106 Y1.915 E4.42912
G1 X0.394 Y1.915 E4.43968
G1 X-0.007 Y1.220 E4.45160
G1 X0.012 Y1.040 F7800.000
G1 Z1.750 F7800.000
G1 X0.668 Y0.027 F7800.000
G1 F600
G1 X0.434 Y0.433 E4.45856
G1 X0.934 Y1.299 E4.47340
G1 X0.842 Y1.458 E4.47613
G1 X0.658 Y1.458 E4.47885
G1 X0.158 Y0.592 E4.49370
G1 X-0.842 Y0.592 E4.50854
G1 X-0.934 Y0.433 E4.51127
G1 X-0.434 Y-0.433 E4.52612
G1 X-0.934 Y-1.299 E4.54096
G1 X-0.842 Y-1.458 E4.54369
G1 X-0.658 Y-1.458 E4.54641
G1 X-0.158 Y-0.592 E4.56126
G1 X0.842 Y-0.592 E4.57610
G1 X0.934 Y-0.433 E4.57883
G1 X0.698 Y-0.025 E4.58583
G1 X1.094 Y0.204 F7800.000
G1 F600
G1 X0.961 Y0.433 E4.58976
G1 X1.461 Y1.299 E4.60460
G1 X1.106 Y1.915 E4.61516
G1 X0.394 Y1.915 E4.62572
G1 X-0.106 Y1.049 E4.64057
G1 X-1.106 Y1.049 E4.65542
G1 X-1.461 Y0.433 E4.66598
G1 X-0.961 Y-0.433 E4.68082
G1 X-1.461 Y-1.299 E4.69567
G1 X-1.106 Y-1.915 E4.70623
G1 X-0.394 Y-1.915 E4.71679
G1 X0.106 Y-1.049 E4.73164
G1 X1.106 Y-1.049 E4.74648
G1 X1.461 Y-0.433 E4.75704
G1 X1.124 Y0.152 E4.76707
G1 X0.833 Y0.249 F7800.000
G1 X0.282 Y-0.086 F7800.000
G1 F600
G1 X0.185 Y-0.183 E4.76939
G1 X-0.126 Y-0.183 E4.77466
G1 X-0.282 Y0.086 E4.77993
G1 X-0.185 Y0.183 E4.78225
G1 Z1.950 F7800.000
G1 X0.321 Y0.874 F7800.000
G1 F600
G1 X0.158 Y0.592 E4.78709
G1 X-0.842 Y0.592 E4.80194
G1 X-0.934 Y0.433 E4.80466
G1 X-0.434 Y-0.433 E4.81951
G1 X-0.934 Y-1.299 E4.83436
G1 X-0.842 Y-1.458 E4.83708
G1 X-0.658 Y-1.458 E4.83981
G1 X-0.158 Y-0.592 E4.85465
G1 X0.842 Y-0.592 E4.86950
G1 X0.934 Y-0.433 E4.87222
G1 X0.434 Y0.433 E4.88707
G1 X0.934 Y1.299 E4.90192
G1 X0.842 Y1.458 E4.90464
G1 X0.658 Y1.458 E4.90737
G1 X0.351 Y0.926 E4.91648
G1 X-0.045 Y1.155 F7800.000
G1 F600
G1 X-0.106 Y1.049 E4.91829
G1 X-1.106 Y1.049 E4.93314
G1 X-1.461 Y0.433 E4.94370
G1 X-0.961 Y-0.433 E4.95855
G1 X-1.461 Y-1.299 E4.97339
G1 X-1.106 Y-1.915 E4.98395
G1 X-0.394 Y-1.915 E4.99451
G1 X0.106 Y-1.049 E5.00936
G1 X1.106 Y-1.049 E5.02421
G1 X1.461 Y-0.433 E5.03477
G1 X0.961 Y0.433 E5.04961
G1 X1.461 Y1.299 E5.06446
G1 X1.106 Y1.915 E5.07502
G1 X0.394 Y1.915 E5.08558
G1 X-0.015 Y1.207 E5.09772
G1 X-0.001 Y1.041 F7800.000
G1 Z2.150 F7800.000
G1 X-0.890 Y0.509 F7800.000
G1 F600
G1 X-0.934 Y0.433 E5.09902
G1 X-0.434 Y-0.433 E5.11387
G1 X-0.934 Y-1.299 E5.12871
G1 X-0.842 Y-1.458 E5.13144
G1 X-0.658 Y-1.458 E5.13416
G1 X-0.158 Y-0.592 E5.14901
G1 X0.842 Y-0.592 E5.16385
G1 X0.934 Y-0.433 E5.16658
G1 X0.842 Y-0.274 E5.16930
G1 X-0.158 Y-0.274 E5.18415
G1 X-0.658 Y0.592 E5.19900
G1 X-0.842 Y0.592 E5.20172
G1 X-0.860 Y0.561 E5.20226
G1 X-1.256 Y0.789 F7800.000
G1 F600
G1 X-1.461 Y0.433 E5.20836
G1 X-0.961 Y-0.433 E5.22321
G1 X-1.461 Y-1.299 E5.23806
G1 X-1.106 Y-1.915 E5.24862
G1 X-0.394 Y-1.915 E5.25918
G1 X0.106 Y-1.049 E5.27402
G1 X1.106 Y-1.049 E5.28887
G1 X1.461 Y-0.433 E5.29943
G1 X1.106 Y0.183 E5.30999
G1 X0.106 Y0.183 E5.32484
G1 X-0.394 Y1.049 E5.33968
G1 X-1.106 Y1.049 E5.35024
G1 X-1.226 Y0.841 E5.35381
G1 X-1.148 Y0.404 F7800.000
G1 Z2.350 F7800.000
G1 X-0.627 Y-1.404 F7800.000
G1 F600
G1 X-0.158 Y-0.592 E5.36773
G1 X0.842 Y-0.592 E5.38258
G1 X0.934 Y-0.433 E5.38531
G1 X0.842 Y-0.274 E5.38803
G1 X-0.158 Y-0.274 E5.40288
G1 X-0.658 Y0.592 E5.41772
G1 X-0.842 Y0.592 E5.42045
G1 X-0.934 Y0.433 E5.42317
G1 X-0.434 Y-0.433 E5.43802
G1 X-0.934 Y-1.299 E5.45286
G1 X-0.842 Y-1.458 E5.45559
G1 X-0.657 Y-1.456 E5.45833
G1 X-0.261 Y-1.685 F7800.000
G1 F600
G1 X0.106 Y-1.049 E5.46923
G1 X1.106 Y-1.049 E5.48407
G1 X1.461 Y-0.433 E5.49464
G1 X1.106 Y0.183 E5.50520
G1 X0.106 Y0.183 E5.52004
G1 X-0.394 Y1.049 E5.53489
G1 X-1.106 Y1.049 E5.54545
G1 X-1.461 Y0.433 E5.55601
G1 X-0.961 Y-0.433 E5.57086
G1 X-1.461 Y-1.299 E5.58570
G1 X-1.106 Y-1.915 E5.59626
G1 X-0.394 Y-1.915 E5.60682
G1 X-0.291 Y-1.737 E5.60988
G1 X-0.301 Y-1.538 F7800.000
G1 Z2.550 F7800.000
G1 X0.842 Y-0.592 F7800.000
G1 F600
G1 X0.934 Y-0.433 E5.61260
G1 X0.842 Y-0.274 E5.61533
G1 X-0.158 Y-0.274 E5.63017
G1 X-0.658 Y0.592 E5.64502
G1 X-0.842 Y0.592 E5.64775
G1 X-0.934 Y0.433 E5.65047
G1 X-0.434 Y-0.433 E5.66532
G1 X-0.934 Y-1.299 E5.68016
G1 X-0.842 Y-1.458 E5.68289
G1 X-0.658 Y-1.458 E5.68561
G1 X-0.158 Y-0.592 E5.70046
G1 X0.782 Y-0.592 E5.71441
G1 X0.782 Y-1.049 F7800.000
G1 F600
G1 X1.106 Y-1.049 E5.71922
G1 X1.461 Y-0.433 E5.72978
G1 X1.106 Y0.183 E5.74034
G1 X0.106 Y0.183 E5.75519
G1 X-0.394 Y1.049 E5.77004
G1 X-1.106 Y1.049 E5.78060
G1 X-1.461 Y0.433 E5.79116
G1 X-0.961 Y-0.433 E5.80600
G1 X-1.461 Y-1.299 E5.82085
G1 X-1.106 Y-1.915 E5.83141
G1 X-0.394 Y-1.915 E5.84197
G1 X0.106 Y-1.049 E5.85682
G1 X0.722 Y-1.049 E5.86596
G1 X0.896 Y-0.746 F7800.000
G1 Z2.750 F7800.000
G1 X-0.895 Y-1.232 F7800.000
G1 F600
G1 X-0.934 Y-1.299 E5.86712
G1 X-0.842 Y-1.458 E5.86984
G1 X-0.658 Y-1.458 E5.87257
G1 X-0.158 Y-0.592 E5.88742
G1 X0.842 Y-0.592 E5.90226
G1 X0.934 Y-0.433 E5.90499
G1 X0.842 Y-0.274 E5.90771
G1 X-0.158 Y-0.274 E5.92256
G1 X-0.658 Y0.592 E5.93740
G1 X-0.842 Y0.592 E5.94013
G1 X-0.934 Y0.433 E5.94285
G1 X-0.434 Y-0.433 E5.95770
G1 X-0.865 Y-1.180 E5.97050
G1 X-1.260 Y-0.951 F7800.000
G1 F600
G1 X-1.461 Y-1.299 E5.97646
G1 X-1.106 Y-1.915 E5.98702
G1 X-0.394 Y-1.915 E5.99758
G1 X0.106 Y-1.049 E6.01243
G1 X1.106 Y-1.049 E6.02728
G1 X1.461 Y-0.433 E6.03784
G1 X1.106 Y0.183 E6.04840
G1 X0.106 Y0.183 E6.06324
G1 X-0.394 Y1.049 E6.07809
G1 X-1.106 Y1.049 E6.08865
G1 X-1.461 Y0.433 E6.09921
G1 X-0.961 Y-0.433 E6.11406
G1 X-1.230 Y-0.899 E6.12205
G1 X-0.989 Y-1.245 F7800.000
G1 Z2.950 F7800.000
G1 X-0.934 Y0.433 F7800.000
G1 F600
G1 X-0.434 Y-0.433 E6.13689
G1 X-0.934 Y-1.299 E6.15174
G1 X-0.842 Y-1.458 E6.15447
G1 X-0.658 Y-1.458 E6.15719
G1 X-0.158 Y-0.592 E6.17204
G1 X0.842 Y-0.592 E6.18688
G1 X0.934 Y-0.433 E6.18961
G1 X0.842 Y-0.274 E6.19233
G1 X-0.158 Y-0.274 E6.20718
G1 X-0.658 Y0.592 E6.22202
G1 X-0.842 Y0.592 E6.22475
G1 X-0.904 Y0.485 E6.22658
G1 X-1.299 Y0.714 F7800.000
G1 F600
G1 X-1.461 Y0.433 E6.23139
G1 X-0.961 Y-0.433 E6.24624
G1 X-1.461 Y-1.299 E6.26108
G1 X-1.106 Y-1.915 E6.27164
G1 X-0.394 Y-1.915 E6.28221
G1 X0.106 Y-1.049 E6.29705
G1 X1.106 Y-1.049 E6.31190
G1 X1.461 Y-0.433 E6.32246
G1 X1.106 Y0.183 E6.33302
G1 X0.106 Y0.183 E6.34787
G1 X-0.394 Y1.049 E6.36271
G1 X-1.106 Y1.049 E6.37327
G1 X-1.269 Y0.765 E6.37813
G1 X-1.206 Y0.403 F7800.000
G1 Z3.150 F7800.000
G1 E4.37813 F2400.00000
G92 E0
G1 X0.887 Y-0.353 F7800.000
G1 E2.00000 F2400.00000
G1 F600
G1 X0.842 Y-0.274 E2.00135
G1 X0.658 Y-0.274 E2.00408
G1 X0.475 Y-0.592 E2.00953
G1 X0.842 Y-0.592 E2.01498
G1 X0.934 Y-0.433 E2.01770
G1 X0.917 Y-0.405 E2.01818
G1 X-0.625 Y-1.400 F7800.000
G1 F600
G1 X-0.475 Y-1.140 E2.02263
G1 X-0.842 Y-1.140 E2.02808
G1 X-0.934 Y-1.299 E2.03081
G1 X-0.842 Y-1.458 E2.03353
G1 X-0.655 Y-1.452 E2.03631
G1 X-0.259 Y-1.680 F7800.000
G1 F600
G1 X0.106 Y-1.049 E2.04713
G1 X1.106 Y-1.049 E2.06198
G1 X1.461 Y-0.433 E2.07254
G1 X1.106 Y0.183 E2.08310
G1 X0.394 Y0.183 E2.09366
G1 X-0.106 Y-0.683 E2.10851
G1 X-1.106 Y-0.683 E2.12335
G1 X-1.461 Y-1.299 E2.13391
G1 X-1.106 Y-1.915 E2.14447
G1 X-0.394 Y-1.915 E2.15503
G1 X-0.289 Y-1.732 E2.15817
G1 X-0.349 Y-1.345 F7800.000
G1 Z3.350 F7800.000
G1 X0.778 Y-0.592 F7800.000
G1 F600
G1 X0.842 Y-0.592 E2.15911
G1 X0.934 Y-0.433 E2.16184
G1 X0.842 Y-0.274 E2.16456
G1 X0.658 Y-0.274 E2.16729
G1 X0.475 Y-0.592 E2.17274
G1 X0.718 Y-0.592 E2.17635
G1 X-0.663 Y-1.458 F7800.000
G1 F600
G1 X-0.475 Y-1.140 E2.18184
G1 X-0.842 Y-1.140 E2.18729
G1 X-0.934 Y-1.299 E2.19001
G1 X-0.842 Y-1.458 E2.19274
G1 X-0.723 Y-1.458 E2.19450
G1 X-0.723 Y-1.915 F7800.000
G1 F600
G1 X-0.394 Y-1.915 E2.19938
G1 X0.106 Y-1.049 E2.21423
G1 X1.106 Y-1.049 E2.22907
G1 X1.461 Y-0.433 E2.23963
G1 X1.106 Y0.183 E2.25019
G1 X0.394 Y0.183 E2.26075
G1 X-0.106 Y-0.683 E2.27560
G1 X-1.106 Y-0.683 E2.29045
G1 X-1.461 Y-1.299 E2.30101
G1 X-1.106 Y-1.915 E2.31157
