; generated by Slic3r 1.2.9 on 2020-09-15 at 16:48:02

; external perimeters extrusion width = 0.50mm
; perimeters extrusion width = 0.50mm
; infill extrusion width = 0.50mm
; solid infill extrusion width = 0.50mm
; top infill extrusion width = 0.50mm

M107
M190 S120 ; set bed temperature
M104 S250 ; set temperature
G28 ; home all axes
G1 Z5 F5000 ; lift nozzle

M109 S250 ; wait for temperature to be reached
G21 ; set units to millimeters
G90 ; use absolute coordinates
M82 ; use absolute distances for extrusion
G92 E0
G1 Z0.350 F7800.000
G1 E-2.00000 F2400.00000
G92 E0
G1 X91.915 Y92.753 F7800.000
G1 E2.00000 F2400.00000
G1 X93.668 Y91.274 E2.08146 F1463.238
G1 X95.820 Y90.481 E2.16292
G1 X97.000 Y90.375 E2.20500
G1 X103.000 Y90.375 E2.41811
G1 X105.259 Y90.772 E2.49958
G1 X107.247 Y91.915 E2.58104 F1463.238
G1 X108.726 Y93.668 E2.66250
G1 X109.519 Y95.820 E2.74396
G1 X109.625 Y97.000 E2.78604
G1 X109.625 Y103.000 E2.99915
G1 X109.228 Y105.259 E3.08061
G1 X108.085 Y107.247 E3.16208
G1 X106.332 Y108.726 E3.24354
G1 X104.180 Y109.519 E3.32500
G1 X103.000 Y109.625 E3.36707
G1 X97.000 Y109.625 E3.58019
G1 X94.741 Y109.228 E3.66165
G1 X92.753 Y108.085 E3.74311
G1 X91.274 Y106.332 E3.82457
G1 X90.481 Y104.180 E3.90604
G1 X90.375 Y103.000 E3.94811
G1 X90.375 Y97.000 E4.16123
G1 X90.772 Y94.741 E4.24269
G1 X91.886 Y92.805 E4.32202
G1 E2.32202 F2400.00000
G92 E0
G1 X100.288 Y98.600 F7800.000
G1 E2.00000 F2400.00000
G1 X101.400 Y98.600 E2.03950 F1463.238
G1 X101.400 Y101.400 E2.13897
G1 X98.600 Y101.400 E2.23844 F1463.238
G1 X98.600 Y98.600 E2.33791
G1 X100.228 Y98.600 E2.39575
G1 X100.228 Y97.975 F7800.000
G1 X102.025 Y97.975 E2.45958 F1463.238
G1 X102.025 Y102.025 E2.60344
G1 X97.975 Y102.025 E2.74730 F1463.238
G1 X97.975 Y97.975 E2.89116
G1 X100.168 Y97.975 E2.96906
G1 X100.168 Y97.350 F7800.000
G1 X102.650 Y97.350 E3.05722 F1463.238
G1 X102.650 Y98.050 E3.08209
G1 X102.650 Y102.650 E3.24547 F1463.238
G1 X97.350 Y102.650 E3.43373
G1 X97.350 Y97.350 E3.62198
G1 X100.108 Y97.350 E3.71994
G1 X100.368 Y97.696 F7800.000
G1 X101.022 Y99.283 F7800.000
G1 X100.717 Y98.978 E3.74004 F1463.238
G1 X99.558 Y98.978 E3.79401
G1 X101.022 Y100.442 E3.89043
G1 X100.442 Y101.022 E3.92859
G1 X98.978 Y99.558 E4.02502
G1 X98.978 Y100.717 E4.07899
G1 X99.283 Y101.022 E4.09908
M104 S240 ; set temperature
M140 S110 ; wait for bed temperature to be reached
G1 Z0.550 F7800.000
G1 X101.836 Y101.023 F7800.000
G1 X101.836 Y101.836 E4.11115 F883.611
G1 X98.164 Y101.836 E4.16566
G1 X98.164 Y98.164 E4.22017
G1 X101.836 Y98.164 E4.27468
G1 X101.836 Y99.700 E4.29748
G1 X101.836 Y100.963 E4.31623 F883.611
G1 X102.293 Y100.963 F7800.000
G1 X102.293 Y102.293 E4.33598 F883.611
G1 X97.707 Y102.293 E4.40406
G1 X97.707 Y97.707 E4.47214
G1 X102.293 Y97.707 E4.54022
G1 X102.293 Y99.700 E4.56981
G1 X102.293 Y100.903 E4.58767 F883.611
G1 X102.750 Y100.903 F7800.000
G1 X102.750 Y102.750 E4.61509 F883.611
G1 X97.250 Y102.750 E4.69675
G1 X97.250 Y97.250 E4.77840
G1 X102.750 Y97.250 E4.86006
G1 X102.750 Y99.700 E4.89643
G1 X102.750 Y100.843 E4.91340 F883.611
G1 X102.404 Y101.103 F7800.000
G1 X101.330 Y101.564 F7800.000
G1 X101.564 Y101.330 E4.91890 F1178.148
G1 X101.564 Y100.607 E4.93093
G1 X100.607 Y101.564 E4.95343
G1 X99.883 Y101.564 E4.96546
G1 X101.564 Y99.883 E5.00498
G1 X101.564 Y99.159 E5.01701
G1 X99.159 Y101.564 E5.07354
G1 X98.456 Y101.544 E5.08524
G1 X101.544 Y98.456 E5.15784
G1 X100.841 Y98.436 E5.16954
G1 X98.436 Y100.841 E5.22607
G1 X98.436 Y100.117 E5.23809
G1 X100.117 Y98.436 E5.27761
G1 X99.393 Y98.436 E5.28964
G1 X98.436 Y99.393 E5.31215
G1 X98.436 Y98.670 E5.32418
G1 X98.670 Y98.436 E5.32968
G1 Z0.750 F7800.000
G1 X101.219 Y101.836 F7800.000
G1 X98.164 Y101.836 E5.37502 F883.611
G1 X98.164 Y98.164 E5.42953
G1 X101.836 Y98.164 E5.48405
G1 X101.836 Y100.250 E5.51501
G1 X101.836 Y101.836 E5.53856 F883.611
G1 X101.279 Y101.836 E5.54683
G1 X101.279 Y102.293 F7800.000
G1 X97.707 Y102.293 E5.59985 F883.611
G1 X97.707 Y97.707 E5.66793
G1 X102.293 Y97.707 E5.73602
G1 X102.293 Y100.250 E5.77377
G1 X102.293 Y102.293 E5.80410 F883.611
G1 X101.339 Y102.293 E5.81827
G1 X101.339 Y102.750 F7800.000
G1 X97.250 Y102.750 E5.87897 F883.611
G1 X97.250 Y97.250 E5.96062
G1 X102.750 Y97.250 E6.04228
G1 X102.750 Y100.250 E6.08682
G1 X102.750 Y102.750 E6.12393 F883.611
G1 X101.399 Y102.750 E6.14399
G1 X101.139 Y102.404 F7800.000
G1 X98.436 Y101.330 F7800.000
G1 X98.670 Y101.564 E6.14949 F1178.148
G1 X99.393 Y101.564 E6.16152
G1 X98.436 Y100.607 E6.18403
G1 X98.436 Y99.883 E6.19606
G1 X100.117 Y101.564 E6.23557
G1 X100.841 Y101.564 E6.24760
G1 X98.436 Y99.159 E6.30413
G1 X98.456 Y98.456 E6.31583
G1 X101.544 Y101.544 E6.38843
G1 X101.564 Y100.841 E6.40013
G1 X99.159 Y98.436 E6.45666
G1 X99.883 Y98.436 E6.46869
G1 X101.564 Y100.117 E6.50821
G1 X101.564 Y99.393 E6.52023
G1 X100.607 Y98.436 E6.54274
G1 X101.330 Y98.436 E6.55477
G1 X101.564 Y98.670 E6.56027
M106 S127.5
G1 Z0.950 F7800.000
G1 X98.164 Y99.531 F7800.000
G1 X98.164 Y98.164 E6.58057 F883.610
G1 X101.836 Y98.164 E6.63508
G1 X101.836 Y101.250 E6.68089
G1 X101.836 Y101.836 E6.68959 F883.610
G1 X98.164 Y101.836 E6.74410
G1 X98.164 Y99.591 E6.77742
G1 X97.707 Y99.591 F7800.000
G1 X97.707 Y97.707 E6.80539 F883.610
G1 X102.293 Y97.707 E6.87348
G1 X102.293 Y101.250 E6.92608
G1 X102.293 Y102.293 E6.94156 F883.610
G1 X97.707 Y102.293 E7.00964
G1 X97.707 Y99.651 E7.04886
G1 X97.250 Y99.651 F7800.000
G1 X97.250 Y97.250 E7.08451 F883.610
G1 X102.750 Y97.250 E7.16616
G1 X102.750 Y101.250 E7.22555
G1 X102.750 Y102.750 E7.24782 F883.610
G1 X97.250 Y102.750 E7.32947
G1 X97.250 Y99.711 E7.37459
G1 X97.596 Y99.451 F7800.000
G1 X98.670 Y98.436 F7800.000
G1 X98.436 Y98.670 E7.38008 F1178.147
G1 X98.436 Y99.393 E7.39211
G1 X99.393 Y98.436 E7.41462
G1 X100.117 Y98.436 E7.42665
G1 X98.436 Y100.117 E7.46617
G1 X98.436 Y100.841 E7.47819
G1 X100.841 Y98.436 E7.53472
G1 X101.544 Y98.456 E7.54642
G1 X98.456 Y101.544 E7.61902
G1 X99.159 Y101.564 E7.63072
G1 X101.564 Y99.159 E7.68725
G1 X101.564 Y99.883 E7.69928
G1 X99.883 Y101.564 E7.73880
G1 X100.607 Y101.564 E7.75082
G1 X101.564 Y100.607 E7.77333
G1 X101.564 Y101.330 E7.78536
G1 X101.330 Y101.564 E7.79086
G1 Z1.150 F7800.000
G1 X100.287 Y98.164 F7800.000
G1 X100.836 Y98.164 E7.79901 F622.048
G1 X100.836 Y100.836 E7.83867
G1 X98.164 Y100.836 E7.87834 F622.048
G1 X98.164 Y98.164 E7.91800
G1 X100.227 Y98.164 E7.94863
G1 X100.227 Y97.707 F7800.000
G1 X101.293 Y97.707 E7.96445 F622.048
G1 X101.293 Y101.293 E8.01769
G1 X97.707 Y101.293 E8.07093 F622.048
G1 X97.707 Y97.707 E8.12416
G1 X100.167 Y97.707 E8.16068
G1 X100.167 Y97.250 F7800.000
G1 X101.750 Y97.250 E8.18418 F622.048
G1 X101.750 Y101.750 E8.25099
G1 X97.250 Y101.750 E8.31780 F622.048
G1 X97.250 Y97.250 E8.38461
G1 X100.107 Y97.250 E8.42702
G1 X100.367 Y97.596 F7800.000
G1 X100.564 Y98.670 F7800.000
G1 X100.330 Y98.436 E8.43278 F829.398
G1 X99.573 Y98.436 E8.44597
G1 X100.564 Y99.427 E8.47038
G1 X100.564 Y100.185 E8.48358
G1 X98.815 Y98.436 E8.52665
G1 X98.436 Y98.815 E8.53597
G1 X100.185 Y100.564 E8.57904
G1 X99.427 Y100.564 E8.59223
G1 X98.436 Y99.573 E8.61665
G1 X98.436 Y100.330 E8.62984
G1 X98.670 Y100.564 E8.63560
G1 Z1.350 F7800.000
G1 X100.836 Y99.298 F7800.000
G1 X100.836 Y100.836 E8.65844 F622.048
G1 X98.164 Y100.836 E8.69810 F622.048
G1 X98.164 Y98.164 E8.73776
G1 X100.836 Y98.164 E8.77743
G1 X100.836 Y99.238 E8.79337
G1 X101.293 Y99.238 F7800.000
G1 X101.293 Y101.293 E8.82388 F622.048
G1 X97.707 Y101.293 E8.87712 F622.048
G1 X97.707 Y97.707 E8.93035
G1 X101.293 Y97.707 E8.98359
G1 X101.293 Y99.178 E9.00542
G1 X101.750 Y99.178 F7800.000
G1 X101.750 Y101.750 E9.04361 F622.048
G1 X97.250 Y101.750 E9.11042 F622.048
G1 X97.250 Y97.250 E9.17723
G1 X101.750 Y97.250 E9.24403
G1 X101.750 Y99.118 E9.27176
G1 X101.404 Y99.378 F7800.000
G1 X100.330 Y100.564 F7800.000
G1 X100.564 Y100.330 E9.27752 F829.398
G1 X100.564 Y99.573 E9.29071
G1 X99.573 Y100.564 E9.31512
G1 X98.815 Y100.564 E9.32832
G1 X100.564 Y98.815 E9.37139
G1 X100.185 Y98.436 E9.38071
G1 X98.436 Y100.185 E9.42378
G1 X98.436 Y99.427 E9.43697
G1 X99.427 Y98.436 E9.46139
G1 X98.670 Y98.436 E9.47458
G1 X98.436 Y98.670 E9.48034
G1 Z1.550 F7800.000
G1 X100.836 Y99.429 F7800.000
G1 X100.836 Y100.836 E9.50123 F622.048
G1 X98.164 Y100.836 E9.54089 F622.048
G1 X98.164 Y98.164 E9.58056
G1 X100.836 Y98.164 E9.62022
G1 X100.836 Y99.369 E9.63811
G1 X101.293 Y99.369 F7800.000
G1 X101.293 Y101.293 E9.66667 F622.048
G1 X97.707 Y101.293 E9.71991 F622.048
G1 X97.707 Y97.707 E9.77314
G1 X101.293 Y97.707 E9.82638
G1 X101.293 Y99.309 E9.85016
G1 X101.750 Y99.309 F7800.000
G1 X101.750 Y101.750 E9.88640 F622.048
G1 X97.250 Y101.750 E9.95321 F622.048
G1 X97.250 Y97.250 E10.02002
G1 X101.750 Y97.250 E10.08683
G1 X101.750 Y99.249 E10.11650
G1 X101.404 Y99.509 F7800.000
G1 X100.564 Y98.670 F7800.000
G1 X100.330 Y98.436 E10.12226 F829.398
G1 X99.573 Y98.436 E10.13545
G1 X100.564 Y99.427 E10.15986
G1 X100.564 Y100.185 E10.17306
G1 X98.815 Y98.436 E10.21613
G1 X98.436 Y98.815 E10.22545
G1 X100.185 Y100.564 E10.26852
G1 X99.427 Y100.564 E10.28171
G1 X98.436 Y99.573 E10.30613
G1 X98.436 Y100.330 E10.31932
G1 X98.670 Y100.564 E10.32508
G1 Z1.750 F7800.000
G1 X99.941 Y98.164 F7800.000
G1 X100.836 Y98.164 E10.33836 F622.048
G1 X100.836 Y100.836 E10.37803
G1 X98.164 Y100.836 E10.41769 F622.048
G1 X98.164 Y98.164 E10.45736
G1 X99.881 Y98.164 E10.48285
G1 X99.881 Y97.707 F7800.000
G1 X101.293 Y97.707 E10.50381 F622.048
G1 X101.293 Y101.293 E10.55704
G1 X97.707 Y101.293 E10.61028 F622.048
G1 X97.707 Y97.707 E10.66352
G1 X99.821 Y97.707 E10.69490
G1 X99.821 Y97.250 F7800.000
G1 X101.750 Y97.250 E10.72354 F622.048
G1 X101.750 Y101.750 E10.79035
G1 X97.250 Y101.750 E10.85715 F622.048
G1 X97.250 Y97.250 E10.92396
G1 X99.761 Y97.250 E10.96124
G1 X100.021 Y97.596 F7800.000
G1 X98.436 Y98.670 F7800.000
G1 X98.670 Y98.436 E10.96700 F829.398
G1 X99.427 Y98.436 E10.98019
G1 X98.436 Y99.427 E11.00460
G1 X98.436 Y100.185 E11.01780
G1 X100.185 Y98.436 E11.06087
G1 X100.564 Y98.815 E11.07019
G1 X98.815 Y100.564 E11.11326
G1 X99.573 Y100.564 E11.12645
G1 X100.564 Y99.573 E11.15087
G1 X100.564 Y100.330 E11.16406
G1 X100.330 Y100.564 E11.16982
G1 Z1.950 F7800.000
G1 X100.032 Y98.164 F7800.000
G1 X100.836 Y98.164 E11.18176 F622.048
G1 X100.836 Y100.836 E11.22142
G1 X98.164 Y100.836 E11.26109 F622.048
G1 X98.164 Y98.164 E11.30075
G1 X99.972 Y98.164 E11.32759
G1 X99.972 Y97.707 F7800.000
G1 X101.293 Y97.707 E11.34720 F622.048
G1 X101.293 Y101.293 E11.40044
G1 X97.707 Y101.293 E11.45367 F622.048
G1 X97.707 Y97.707 E11.50691
G1 X99.912 Y97.707 E11.53964
G1 X99.912 Y97.250 F7800.000
G1 X101.750 Y97.250 E11.56693 F622.048
G1 X101.750 Y101.750 E11.63374
G1 X97.250 Y101.750 E11.70055 F622.048
G1 X97.250 Y97.250 E11.76736
G1 X99.852 Y97.250 E11.80598
G1 X100.112 Y97.596 F7800.000
G1 X100.564 Y98.670 F7800.000
G1 X100.330 Y98.436 E11.81174 F829.398
G1 X99.573 Y98.436 E11.82493
G1 X100.564 Y99.427 E11.84934
G1 X100.564 Y100.185 E11.86254
G1 X98.815 Y98.436 E11.90561
G1 X98.436 Y98.815 E11.91493
G1 X100.185 Y100.564 E11.95800
G1 X99.427 Y100.564 E11.97120
G1 X98.436 Y99.573 E11.99561
G1 X98.436 Y100.330 E12.00880
G1 X98.670 Y100.564 E12.01456
G1 Z2.150 F7800.000
G1 X98.691 Y99.836 F7800.000
G1 X98.164 Y99.836 E12.02238 F600.000
G1 X98.164 Y98.164 E12.04719
G1 X99.836 Y98.164 E12.07201
G1 X99.836 Y99.836 E12.09683
G1 X98.751 Y99.836 E12.11294 F600.000
G1 X98.751 Y100.293 F7800.000
G1 X97.707 Y100.293 E12.12844 F600.000
G1 X97.707 Y97.707 E12.16683
G1 X100.293 Y97.707 E12.20522
G1 X100.293 Y100.293 E12.24361
G1 X98.811 Y100.293 E12.26561 F600.000
G1 X98.811 Y100.750 F7800.000
G1 X97.250 Y100.750 E12.28878 F600.000
G1 X97.250 Y97.250 E12.34074
G1 X100.750 Y97.250 E12.39270
G1 X100.750 Y100.750 E12.44467
G1 X98.871 Y100.750 E12.47257 F600.000
G1 X98.611 Y100.404 F7800.000
G1 X99.330 Y99.564 F7800.000
G1 X99.564 Y99.330 E12.47936 F600.000
G1 X99.544 Y98.456 E12.49734
G1 X98.456 Y99.544 E12.52898
G1 X98.436 Y98.670 E12.54695
G1 X98.670 Y98.436 E12.55375
G1 Z2.350 F7800.000
G1 X98.164 Y98.567 F7800.000
G1 X98.164 Y98.164 E12.55973 F600.000
G1 X99.836 Y98.164 E12.58455
G1 X99.836 Y99.836 E12.60937
G1 X98.164 Y99.836 E12.63419 F600.000
G1 X98.164 Y98.627 E12.65213
G1 X97.707 Y98.627 F7800.000
G1 X97.707 Y97.707 E12.66579 F600.000
G1 X100.293 Y97.707 E12.70418
G1 X100.293 Y98.000 E12.70853
G1 X100.293 Y100.293 E12.74257 F600.000
G1 X97.707 Y100.293 E12.78096
G1 X97.707 Y98.687 E12.80480
G1 X97.250 Y98.687 F7800.000
G1 X97.250 Y97.250 E12.82614 F600.000
G1 X100.750 Y97.250 E12.87810
G1 X100.750 Y98.000 E12.88923
G1 X100.750 Y100.750 E12.93006 F600.000
G1 X97.250 Y100.750 E12.98202
G1 X97.250 Y98.747 E13.01176
G1 X97.596 Y98.487 F7800.000
G1 X98.436 Y99.330 F7800.000
G1 X98.670 Y99.564 E13.01856 F600.000
G1 X99.544 Y99.544 E13.03653
G1 X98.456 Y98.456 E13.06817
G1 X99.330 Y98.436 E13.08614
G1 X99.564 Y98.670 E13.09294
G1 Z2.550 F7800.000
G1 X99.836 Y98.734 F7800.000
G1 X99.836 Y98.800 E13.09392 F600.000
G1 X99.836 Y99.836 E13.10930 F600.000
G1 X98.164 Y99.836 E13.13412
G1 X98.164 Y98.164 E13.15894
G1 X99.836 Y98.164 E13.18376
G1 X99.836 Y98.674 E13.19132
G1 X100.293 Y98.674 F7800.000
G1 X100.293 Y98.800 E13.19320 F600.000
G1 X100.293 Y100.293 E13.21536 F600.000
G1 X97.707 Y100.293 E13.25375
G1 X97.707 Y97.707 E13.29214
G1 X100.293 Y97.707 E13.33053
G1 X100.293 Y98.614 E13.34399
G1 X100.750 Y98.614 F7800.000
G1 X100.750 Y98.800 E13.34676 F600.000
G1 X100.750 Y100.750 E13.37571 F600.000
G1 X97.250 Y100.750 E13.42767
G1 X97.250 Y97.250 E13.47963
G1 X100.750 Y97.250 E13.53159
G1 X100.750 Y98.554 E13.55095
G1 X100.589 Y98.707 F7800.000
G1 X99.330 Y99.564 F7800.000
G1 X99.564 Y99.330 E13.55775 F600.000
G1 X99.544 Y98.456 E13.57573
G1 X98.456 Y99.544 E13.60736
G1 X98.436 Y98.670 E13.62534
G1 X98.670 Y98.436 E13.63213
G1 Z2.750 F7800.000
G1 X99.144 Y98.164 F7800.000
G1 X99.836 Y98.164 E13.64240 F600.000
G1 X99.836 Y98.950 E13.65407
G1 X99.836 Y99.836 E13.66722 F600.000
G1 X98.164 Y99.836 E13.69204
G1 X98.164 Y98.164 E13.71686
G1 X99.084 Y98.164 E13.73052
G1 X99.084 Y97.707 F7800.000
G1 X100.293 Y97.707 E13.74846 F600.000
G1 X100.293 Y98.950 E13.76691
G1 X100.293 Y100.293 E13.78685 F600.000
G1 X97.707 Y100.293 E13.82524
G1 X97.707 Y97.707 E13.86363
G1 X99.024 Y97.707 E13.88319
G1 X99.024 Y97.250 F7800.000
G1 X100.750 Y97.250 E13.90881 F600.000
G1 X100.750 Y98.950 E13.93405
G1 X100.750 Y100.750 E13.96077 F600.000
G1 X97.250 Y100.750 E14.01273
G1 X97.250 Y97.250 E14.06469
G1 X98.964 Y97.250 E14.09014
G1 X99.224 Y97.596 F7800.000
G1 X99.564 Y98.670 F7800.000
G1 X99.330 Y98.436 E14.09694 F600.000
G1 X98.456 Y98.456 E14.11492
G1 X99.544 Y99.544 E14.14655
G1 X98.670 Y99.564 E14.16453
G1 X98.436 Y99.330 E14.17133
G1 Z2.950 F7800.000
G1 X98.164 Y99.357 F7800.000
G1 X98.164 Y98.164 E14.18903 F600.000
G1 X99.836 Y98.164 E14.21385
G1 X99.836 Y99.550 E14.23442
G1 X99.836 Y99.836 E14.23867 F600.000
G1 X98.164 Y99.836 E14.26348
G1 X98.164 Y99.417 E14.26971
G1 X97.707 Y99.417 F7800.000
G1 X97.707 Y97.707 E14.29509 F600.000
G1 X100.293 Y97.707 E14.33348
G1 X100.293 Y99.550 E14.36084
G1 X100.293 Y100.293 E14.37187 F600.000
G1 X97.707 Y100.293 E14.41026
G1 X97.707 Y99.477 E14.42238
G1 X97.250 Y99.477 F7800.000
G1 X97.250 Y97.250 E14.45543 F600.000
G1 X100.750 Y97.250 E14.50740
G1 X100.750 Y99.550 E14.54154
G1 X100.750 Y100.750 E14.55936 F600.000
G1 X97.250 Y100.750 E14.61132
G1 X97.250 Y99.537 E14.62933
G1 X97.596 Y99.277 F7800.000
G1 X98.670 Y98.436 F7800.000
G1 X98.436 Y98.670 E14.63613 F600.000
G1 X98.456 Y99.544 E14.65411
G1 X99.544 Y98.456 E14.68574
G1 X99.564 Y99.330 E14.70372
G1 X99.330 Y99.564 E14.71052
G1 Z3.150 F7800.000
G1 X98.164 Y98.397 F7800.000
G1 X98.164 Y98.164 E14.71398 F600.000
G1 X98.836 Y98.164 E14.72395
G1 X98.836 Y98.836 E14.73392
G1 X98.164 Y98.836 E14.74389 F600.000
G1 X98.164 Y98.457 E14.74952
G1 X97.707 Y98.457 F7800.000
G1 X97.707 Y97.707 E14.76065 F600.000
G1 X99.293 Y97.707 E14.78419
G1 X99.293 Y99.293 E14.80774
G1 X97.707 Y99.293 E14.83128 F600.000
G1 X97.707 Y98.517 E14.84280
G1 X97.250 Y98.517 F7800.000
